;FLAVOR:RepRap
;TIME:2751
M104 S200.000000
M109 S200.000000
; -- START GCODE --
G21                     ;set units to millimetres
G90                     ;set to absolute positioning
M106 S0                 ;set fan speed to zero (turned off)
G28 X0 Y0               ;move to the X/Y origin (Home)
G28 Z0                  ;move to the Z origin (Home)
G1 Z15.0 F1200          ;move Z to position 15.0 mm
G92 E0                  ;zero the extruded length
G1 E20 F200             ;extrude 20mm of feed stock
G92 E0                  ;zero the extruded length again
G1 F7200                ;set feedrate to 120 mm/sec
; -- end of START GCODE --
;Generated with Cura_SteamEngine 2.1.3
;LAYER_COUNT:67
;LAYER:0
M107
G1 F1800.000000 E-6.50000
G1 Z20.075
G0 F7200.000 X103.941 Y69.755 Z0.275
;TYPE:SKIRT
G1 Z0.200
G1 F1800.000 E0.00000
G1 F1200.00000 X104.393 Y69.107 E0.02628
G1 X104.657 Y68.785 E0.04013
G1 X105.291 Y68.052 E0.07236
G1 X105.837 Y67.482 E0.09861
G1 X106.438 Y66.970 E0.12487
G1 X106.778 Y66.723 E0.13885
G1 X107.577 Y66.175 E0.17108
G1 X108.250 Y65.761 E0.19736
G1 X108.962 Y65.418 E0.22364
G1 X109.330 Y65.274 E0.23678
G1 X110.240 Y64.944 E0.26898
G1 X110.995 Y64.713 E0.29524
G1 X111.769 Y64.559 E0.32149
G1 X112.190 Y64.509 E0.33559
G1 X113.154 Y64.421 E0.36779
G1 X113.943 Y64.389 E0.39405
G1 X114.731 Y64.437 E0.42031
G1 X115.131 Y64.493 E0.43374
G1 X116.090 Y64.651 E0.46607
G1 X116.862 Y64.818 E0.49234
G1 X117.612 Y65.063 E0.51858
G1 X118.013 Y65.230 E0.53303
G1 X118.894 Y65.625 E0.56514
G1 X119.597 Y65.984 E0.59140
G1 X120.573 Y66.649 E0.63068
G1 X121.330 Y67.254 E0.66291
G1 X121.921 Y67.777 E0.68916
G1 X122.456 Y68.358 E0.71542
G1 X122.725 Y68.701 E0.72992
G1 X123.302 Y69.479 E0.76214
G1 X123.740 Y70.136 E0.78840
G1 X124.265 Y71.192 E0.82762
G1 X124.629 Y72.089 E0.85982
G1 X124.888 Y72.835 E0.88609
G1 X125.071 Y73.603 E0.91235
G1 X125.138 Y74.032 E0.92679
G1 X125.261 Y74.993 E0.95901
G1 X125.324 Y75.983 E0.99201
G1 X125.325 Y111.741 E2.18132
G1 X125.285 Y112.529 E2.20756
G1 X125.166 Y113.310 E2.23384
G1 X124.968 Y114.075 E2.26012
G1 X124.694 Y114.815 E2.28637
G1 X124.346 Y115.524 E2.31264
G1 X123.710 Y116.493 E2.35119
G1 X120.637 Y120.493 E2.51896
G1 X120.125 Y121.094 E2.54522
G1 X119.555 Y121.640 E2.57147
G1 X118.932 Y122.126 E2.59775
G1 X118.264 Y122.546 E2.62399
G1 X117.556 Y122.897 E2.65028
G1 X116.817 Y123.174 E2.67653
G1 X116.053 Y123.375 E2.70280
G1 X115.273 Y123.498 E2.72906
G1 X114.452 Y123.541 E2.75641
G1 X113.525 Y123.541 E2.78724
G1 X113.326 Y123.528 E2.79387
G1 X113.326 Y123.977 E2.80881
G1 X113.458 Y124.138 E2.81573
G1 X113.994 Y124.876 E2.84607
G1 X114.333 Y125.406 E2.86699
G1 X114.761 Y126.165 E2.89598
G1 X115.041 Y126.734 E2.91707
G1 X115.395 Y127.575 E2.94742
G1 X115.606 Y128.171 E2.96845
G1 X115.858 Y129.040 E2.99854
G1 X115.998 Y129.654 E3.01949
G1 X116.143 Y130.502 E3.04810
G1 X116.215 Y131.132 E3.06919
G1 X116.265 Y132.055 E3.09993
G1 X116.262 Y132.687 E3.12095
G1 X116.207 Y133.576 E3.15058
G1 X116.132 Y134.203 E3.17158
G1 X115.978 Y135.072 E3.20094
G1 X115.833 Y135.685 E3.22189
G1 X115.572 Y136.556 E3.25213
G1 X115.356 Y137.150 E3.27315
G1 X115.000 Y137.977 E3.30310
G1 X114.716 Y138.544 E3.32419
G1 X114.281 Y139.303 E3.35329
G1 X113.937 Y139.832 E3.37427
G1 X113.398 Y140.564 E3.40451
G1 X112.996 Y141.048 E3.42543
G1 X112.381 Y141.707 E3.45541
G1 X111.922 Y142.145 E3.47652
G1 X111.241 Y142.724 E3.50625
G1 X110.737 Y143.105 E3.52726
G1 X109.993 Y143.603 E3.55704
G1 X109.450 Y143.923 E3.57800
G1 X108.650 Y144.334 E3.60792
G1 X108.070 Y144.591 E3.62902
G1 X107.227 Y144.908 E3.65897
G1 X106.626 Y145.095 E3.67990
G1 X105.772 Y145.308 E3.70918
G1 X105.149 Y145.427 E3.73027
G1 X104.254 Y145.545 E3.76030
G1 X103.624 Y145.591 E3.78131
G1 X102.723 Y145.605 E3.81128
G1 X102.092 Y145.578 E3.83229
G1 X101.211 Y145.490 E3.86174
G1 X100.589 Y145.392 E3.88268
G1 X99.701 Y145.198 E3.91291
G1 X99.090 Y145.027 E3.93401
G1 X98.242 Y144.737 E3.96382
G1 X97.657 Y144.498 E3.98484
G1 X96.854 Y144.115 E4.01443
G1 X96.302 Y143.812 E4.03537
G1 X95.540 Y143.334 E4.06529
G1 X95.023 Y142.967 E4.08638
G1 X94.327 Y142.411 E4.11601
G1 X93.857 Y141.989 E4.13702
G1 X93.218 Y141.344 E4.16721
G1 X92.800 Y140.870 E4.18823
G1 X92.259 Y140.182 E4.21734
G1 X91.898 Y139.666 E4.23829
G1 X91.419 Y138.889 E4.26865
G1 X91.119 Y138.331 E4.28972
G1 X90.743 Y137.525 E4.31930
G1 X90.509 Y136.938 E4.34032
G1 X90.224 Y136.081 E4.37036
G1 X90.060 Y135.473 E4.39130
G1 X89.878 Y134.602 E4.42090
G1 X89.784 Y133.977 E4.44192
G1 X89.702 Y133.087 E4.47165
G1 X89.680 Y132.453 E4.49275
G1 X89.697 Y131.598 E4.52119
G1 X89.726 Y131.212 E4.53406
G1 X89.726 Y112.053 E5.17129
G1 X89.738 Y111.627 E5.18547
G1 X89.756 Y111.298 E5.19643
G1 X89.849 Y110.449 E5.22483
G1 X89.903 Y110.123 E5.23583
G1 X90.105 Y109.231 E5.26624
G1 X90.324 Y108.507 E5.29140
G1 X102.751 Y72.226 E6.56694
G1 X103.131 Y71.311 E6.59989
G1 X103.557 Y70.445 E6.63199
G1 X103.941 Y69.755 E6.65825
G0 F7200.00000 X103.916 Y70.622
G1 F1200.000 X104.291 Y69.950 E6.68385
G1 X104.959 Y69.047 E6.72121
G1 X105.593 Y68.314 E6.75344
G1 X106.126 Y67.759 E6.77903
G1 X107.004 Y67.052 E6.81653
G1 X107.803 Y66.504 E6.84875
G1 X108.460 Y66.103 E6.87435
G1 X109.466 Y65.650 E6.91105
G1 X110.376 Y65.320 E6.94324
G1 X111.112 Y65.096 E6.96883
G1 X112.226 Y64.908 E7.00641
G1 X113.190 Y64.820 E7.03860
G1 X113.959 Y64.790 E7.06420
G1 X115.066 Y64.887 E7.10116
G1 X116.025 Y65.045 E7.13349
G1 X116.776 Y65.210 E7.15906
G1 X117.849 Y65.595 E7.19698
G1 X118.730 Y65.990 E7.22909
G1 X119.415 Y66.340 E7.25467
G1 X120.323 Y66.961 E7.29126
G1 X121.080 Y67.566 E7.32349
G1 X121.655 Y68.077 E7.34908
G1 X122.404 Y68.939 E7.38706
G1 X122.981 Y69.717 E7.41928
G1 X123.406 Y70.358 E7.44486
G1 X123.894 Y71.342 E7.48139
G1 X124.258 Y72.239 E7.51359
G1 X124.510 Y72.966 E7.53918
G1 X124.741 Y74.083 E7.57711
G1 X124.864 Y75.044 E7.60934
G1 X124.924 Y75.983 E7.64063
G1 X124.925 Y111.741 E8.82995
G1 X124.885 Y112.509 E8.85553
G1 X124.766 Y113.269 E8.88111
G1 X124.568 Y114.012 E8.90669
G1 X124.294 Y114.731 E8.93228
G1 X123.947 Y115.417 E8.95785
G1 X123.393 Y116.249 E8.99109
G1 X120.320 Y120.249 E9.15886
G1 X119.821 Y120.834 E9.18444
G1 X119.263 Y121.364 E9.21003
G1 X118.653 Y121.833 E9.23563
G1 X117.998 Y122.236 E9.26121
G1 X117.305 Y122.569 E9.28678
G1 X116.581 Y122.828 E9.31235
G1 X115.834 Y123.011 E9.33793
G1 X115.072 Y123.115 E9.36351
G1 X114.452 Y123.141 E9.38415
G1 X113.525 Y123.141 E9.41498
G1 X112.926 Y123.101 E9.43495
G1 X112.926 Y124.119 E9.46881
G1 X113.149 Y124.391 E9.48051
G1 X113.657 Y125.092 E9.50930
G1 X113.996 Y125.622 E9.53023
G1 X114.402 Y126.342 E9.55772
G1 X114.682 Y126.911 E9.57881
G1 X115.018 Y127.708 E9.60758
G1 X115.229 Y128.304 E9.62861
G1 X115.468 Y129.129 E9.65718
G1 X115.608 Y129.743 E9.67812
G1 X115.745 Y130.548 E9.70528
G1 X115.817 Y131.178 E9.72637
G1 X115.865 Y132.053 E9.75552
G1 X115.862 Y132.685 E9.77654
G1 X115.810 Y133.529 E9.80466
G1 X115.735 Y134.156 E9.82567
G1 X115.588 Y134.980 E9.85350
G1 X115.443 Y135.593 E9.87446
G1 X115.196 Y136.419 E9.90313
G1 X114.980 Y137.013 E9.92415
G1 X114.642 Y137.798 E9.95258
G1 X114.358 Y138.365 E9.97367
G1 X113.946 Y139.085 E10.00126
G1 X113.602 Y139.614 E10.02225
G1 X113.091 Y140.308 E10.05091
G1 X112.689 Y140.792 E10.07184
G1 X112.105 Y141.418 E10.10032
G1 X111.646 Y141.856 E10.12142
G1 X110.999 Y142.405 E10.14964
G1 X110.495 Y142.786 E10.17065
G1 X109.790 Y143.258 E10.19887
G1 X109.247 Y143.578 E10.21983
G1 X108.488 Y143.969 E10.24823
G1 X107.908 Y144.226 E10.26933
G1 X107.109 Y144.526 E10.29772
G1 X106.508 Y144.713 E10.31865
G1 X105.697 Y144.916 E10.34646
G1 X105.074 Y145.035 E10.36755
G1 X104.225 Y145.146 E10.39603
G1 X103.595 Y145.192 E10.41704
G1 X102.740 Y145.205 E10.44548
G1 X102.109 Y145.178 E10.46649
G1 X101.273 Y145.095 E10.49443
G1 X100.651 Y144.997 E10.51537
G1 X99.809 Y144.813 E10.54404
G1 X99.198 Y144.642 E10.56514
G1 X98.393 Y144.366 E10.59345
G1 X97.808 Y144.127 E10.61447
G1 X97.046 Y143.764 E10.64254
G1 X96.494 Y143.461 E10.66348
G1 X95.772 Y143.008 E10.69183
G1 X95.255 Y142.641 E10.71292
G1 X94.594 Y142.113 E10.74106
G1 X94.124 Y141.691 E10.76207
G1 X93.518 Y141.079 E10.79071
G1 X93.100 Y140.605 E10.81173
G1 X92.587 Y139.953 E10.83933
G1 X92.226 Y139.437 E10.86027
G1 X91.771 Y138.699 E10.88911
G1 X91.471 Y138.141 E10.91018
G1 X91.115 Y137.377 E10.93821
G1 X90.881 Y136.790 E10.95923
G1 X90.610 Y135.977 E10.98773
G1 X90.446 Y135.369 E11.00868
G1 X90.273 Y134.543 E11.03675
G1 X90.179 Y133.918 E11.05777
G1 X90.101 Y133.074 E11.08596
G1 X90.079 Y132.440 E11.10706
G1 X90.096 Y131.628 E11.13407
G1 X90.126 Y131.229 E11.14738
G1 X90.126 Y112.053 E11.78518
G1 X90.137 Y111.649 E11.79862
G1 X90.155 Y111.320 E11.80958
G1 X90.243 Y110.515 E11.83651
G1 X90.297 Y110.189 E11.84750
G1 X90.489 Y109.342 E11.87639
G1 X90.702 Y108.637 E11.90088
G1 X103.129 Y72.356 E13.17642
G1 X103.490 Y71.488 E13.20768
G1 X103.916 Y70.622 E13.23978
G0 F7200.00000 X104.275 Y70.798
G1 F1200.000 X104.640 Y70.146 E13.26464
G1 X105.262 Y69.309 E13.29932
G1 X105.896 Y68.576 E13.33155
G1 X106.415 Y68.037 E13.35644
G1 X107.231 Y67.382 E13.39124
G1 X108.030 Y66.834 E13.42347
G1 X108.668 Y66.445 E13.44832
G1 X109.603 Y66.026 E13.48240
G1 X110.513 Y65.696 E13.51460
G1 X111.228 Y65.479 E13.53945
G1 X112.263 Y65.306 E13.57435
G1 X113.227 Y65.218 E13.60655
G1 X113.974 Y65.190 E13.63141
G1 X115.001 Y65.282 E13.66570
G1 X115.960 Y65.440 E13.69803
G1 X116.691 Y65.601 E13.72293
G1 X117.686 Y65.960 E13.75811
G1 X118.567 Y66.355 E13.79022
G1 X119.232 Y66.697 E13.81509
G1 X120.073 Y67.274 E13.84901
G1 X120.830 Y67.879 E13.88125
G1 X121.389 Y68.376 E13.90612
G1 X122.082 Y69.177 E13.94135
G1 X122.659 Y69.955 E13.97357
G1 X123.072 Y70.579 E13.99846
G1 X123.523 Y71.493 E14.03236
G1 X123.887 Y72.390 E14.06455
G1 X124.131 Y73.097 E14.08943
G1 X124.344 Y74.133 E14.12461
G1 X124.467 Y75.094 E14.15683
G1 X124.524 Y75.983 E14.18646
G1 X124.525 Y111.741 E15.37578
G1 X124.485 Y112.488 E15.40066
G1 X124.366 Y113.226 E15.42552
G1 X124.168 Y113.948 E15.45042
G1 X123.895 Y114.644 E15.47529
G1 X123.548 Y115.307 E15.50018
G1 X123.076 Y116.006 E15.52823
G1 X120.003 Y120.006 E15.69600
G1 X119.516 Y120.574 E15.72088
G1 X118.972 Y121.086 E15.74573
G1 X118.375 Y121.538 E15.77063
G1 X117.734 Y121.924 E15.79552
G1 X117.056 Y122.239 E15.82039
G1 X116.348 Y122.479 E15.84525
G1 X115.618 Y122.643 E15.87014
G1 X114.874 Y122.728 E15.89504
G1 X114.452 Y122.741 E15.90908
G1 X113.525 Y122.741 E15.93992
G1 X112.588 Y122.678 E15.97115
G1 X112.526 Y122.670 E15.97323
G1 X112.526 Y124.263 E16.02621
G1 X112.839 Y124.645 E16.04264
G1 X113.320 Y125.307 E16.06986
G1 X113.659 Y125.837 E16.09078
G1 X114.043 Y126.518 E16.11678
G1 X114.323 Y127.087 E16.13788
G1 X114.641 Y127.842 E16.16513
G1 X114.852 Y128.438 E16.18615
G1 X115.078 Y129.218 E16.21316
G1 X115.218 Y129.832 E16.23411
G1 X115.348 Y130.593 E16.25979
G1 X115.420 Y131.223 E16.28088
G1 X115.465 Y132.051 E16.30846
G1 X115.462 Y132.683 E16.32948
G1 X115.412 Y133.481 E16.35607
G1 X115.337 Y134.108 E16.37707
G1 X115.199 Y134.888 E16.40342
G1 X115.054 Y135.501 E16.42437
G1 X114.821 Y136.282 E16.45148
G1 X114.605 Y136.876 E16.47250
G1 X114.285 Y137.619 E16.49941
G1 X114.001 Y138.186 E16.52050
G1 X113.610 Y138.867 E16.54662
G1 X113.266 Y139.396 E16.56761
G1 X112.783 Y140.053 E16.59473
G1 X112.381 Y140.537 E16.61565
G1 X111.829 Y141.128 E16.64255
G1 X111.370 Y141.566 E16.66365
G1 X110.758 Y142.086 E16.69036
G1 X110.254 Y142.467 E16.71138
G1 X109.587 Y142.914 E16.73808
G1 X109.044 Y143.234 E16.75905
G1 X108.326 Y143.603 E16.78590
G1 X107.746 Y143.860 E16.80700
G1 X106.990 Y144.144 E16.83386
G1 X106.389 Y144.331 E16.85479
G1 X105.622 Y144.523 E16.88109
G1 X104.999 Y144.642 E16.90218
G1 X104.196 Y144.747 E16.92912
G1 X103.566 Y144.793 E16.95013
G1 X102.757 Y144.806 E16.97704
G1 X102.126 Y144.779 E16.99805
G1 X101.336 Y144.700 E17.02445
G1 X100.714 Y144.602 E17.04540
G1 X99.916 Y144.428 E17.07256
G1 X99.305 Y144.257 E17.09366
G1 X98.545 Y143.996 E17.12039
G1 X97.960 Y143.757 E17.14141
G1 X97.239 Y143.413 E17.16798
G1 X96.687 Y143.110 E17.18892
G1 X96.003 Y142.682 E17.21576
G1 X95.486 Y142.315 E17.23685
G1 X94.861 Y141.816 E17.26345
G1 X94.391 Y141.394 E17.28446
G1 X93.818 Y140.815 E17.31155
G1 X93.400 Y140.341 E17.33257
G1 X92.914 Y139.724 E17.35869
G1 X92.553 Y139.208 E17.37964
G1 X92.124 Y138.510 E17.40689
G1 X91.824 Y137.952 E17.42796
G1 X91.487 Y137.229 E17.45449
G1 X91.253 Y136.642 E17.47551
G1 X90.997 Y135.873 E17.50247
G1 X90.833 Y135.265 E17.52341
G1 X90.669 Y134.483 E17.54999
G1 X90.575 Y133.858 E17.57101
G1 X90.501 Y133.060 E17.59766
G1 X90.479 Y132.426 E17.61876
G1 X90.495 Y131.658 E17.64431
G1 X90.526 Y131.246 E17.65805
G1 X90.526 Y112.053 E18.29641
G1 X90.536 Y111.671 E18.30912
G1 X90.554 Y111.342 E18.32008
G1 X90.638 Y110.580 E18.34558
G1 X90.692 Y110.254 E18.35657
G1 X90.874 Y109.453 E18.38389
G1 X91.081 Y108.767 E18.40772
G1 X103.508 Y72.486 E19.68326
G1 X103.849 Y71.664 E19.71286
G1 X104.275 Y70.798 E19.74496
G0 F7200.00000 X104.634 Y70.975
G1 F1200.000 X104.990 Y70.342 E19.76911
G1 X105.564 Y69.570 E19.80111
G1 X106.198 Y68.837 E19.83334
G1 X106.703 Y68.315 E19.85750
G1 X107.457 Y67.712 E19.88961
G1 X108.256 Y67.164 E19.92184
G1 X108.877 Y66.787 E19.94600
G1 X109.739 Y66.402 E19.97740
G1 X110.649 Y66.072 E20.00959
G1 X111.344 Y65.863 E20.03373
G1 X112.299 Y65.704 E20.06593
G1 X113.263 Y65.616 E20.09813
G1 X113.989 Y65.590 E20.12229
G1 X114.936 Y65.677 E20.15392
G1 X115.895 Y65.835 E20.18625
G1 X116.604 Y65.992 E20.21040
G1 X117.522 Y66.325 E20.24288
G1 X118.403 Y66.720 E20.27499
G1 X119.049 Y67.053 E20.29917
G1 X119.823 Y67.586 E20.33042
G1 X120.580 Y68.191 E20.36265
G1 X121.122 Y68.675 E20.38682
G1 X121.761 Y69.415 E20.41934
G1 X122.338 Y70.193 E20.45156
G1 X122.738 Y70.800 E20.47574
G1 X123.153 Y71.643 E20.50699
G1 X123.517 Y72.540 E20.53918
G1 X123.752 Y73.227 E20.56333
G1 X123.948 Y74.184 E20.59582
G1 X124.071 Y75.145 E20.62805
G1 X124.124 Y75.983 E20.65598
G1 X124.125 Y111.741 E21.84529
G1 X124.085 Y112.466 E21.86944
G1 X123.966 Y113.183 E21.89362
G1 X123.768 Y113.882 E21.91778
G1 X123.495 Y114.555 E21.94193
G1 X123.150 Y115.194 E21.96609
G1 X122.759 Y115.762 E21.98902
G1 X119.686 Y119.762 E22.15679
G1 X119.212 Y120.313 E22.18097
G1 X118.681 Y120.808 E22.20511
G1 X118.099 Y121.242 E22.22926
G1 X117.472 Y121.609 E22.25342
G1 X116.809 Y121.906 E22.27758
G1 X116.117 Y122.127 E22.30175
G1 X115.405 Y122.272 E22.32591
G1 X114.452 Y122.341 E22.35769
G1 X113.525 Y122.341 E22.38853
G1 X112.641 Y122.282 E22.41799
G1 X112.382 Y122.247 E22.42669
G1 X112.126 Y122.198 E22.43535
G1 X112.126 Y124.405 E22.50876
G1 X112.128 Y124.407 E22.50885
G1 X112.530 Y124.898 E22.52996
G1 X112.983 Y125.523 E22.55563
G1 X113.322 Y126.053 E22.57656
G1 X113.684 Y126.695 E22.60107
G1 X113.964 Y127.264 E22.62216
G1 X114.264 Y127.975 E22.64783
G1 X114.475 Y128.571 E22.66886
G1 X114.688 Y129.307 E22.69434
G1 X114.828 Y129.921 E22.71529
G1 X114.950 Y130.639 E22.73951
G1 X115.022 Y131.269 E22.76060
G1 X115.065 Y132.049 E22.78659
G1 X115.062 Y132.681 E22.80761
G1 X115.015 Y133.434 E22.83270
G1 X114.940 Y134.061 E22.85370
G1 X114.810 Y134.796 E22.87853
G1 X114.665 Y135.409 E22.89948
G1 X114.445 Y136.146 E22.92506
G1 X114.229 Y136.740 E22.94608
G1 X113.927 Y137.440 E22.97144
G1 X113.643 Y138.007 E22.99253
G1 X113.275 Y138.649 E23.01714
G1 X112.931 Y139.178 E23.03813
G1 X112.475 Y139.797 E23.06370
G1 X112.073 Y140.281 E23.08463
G1 X111.552 Y140.839 E23.11002
G1 X111.093 Y141.277 E23.13112
G1 X110.517 Y141.767 E23.15627
G1 X110.013 Y142.148 E23.17729
G1 X109.384 Y142.569 E23.20246
G1 X108.841 Y142.889 E23.22343
