;FLAVOR:RepRap
;TIME:13087
M104 S220.000000
M109 S220.000000
; -- START GCODE --
G21                     ;set units to millimetres
G90                     ;set to absolute positioning
M106 S0                 ;set fan speed to zero (turned off)
G28 X0 Y0               ;move to the X/Y origin (Home)
G28 Z0                  ;move to the Z origin (Home)
G1 Z15.0 F1200          ;move Z to position 15.0 mm
G92 E0                  ;zero the extruded length
G1 E20 F200             ;extrude 20mm of feed stock
G92 E0                  ;zero the extruded length again
G1 F7200                ;set feedrate to 120 mm/sec
; -- end of START GCODE --
;Generated with Cura_SteamEngine 2.1.3
;LAYER_COUNT:125
;LAYER:0
M107
G1 F1800.000000 E-6.50000
G1 Z20.075
G0 F7200.000 X61.928 Y88.895 Z0.275
;TYPE:SKIRT
G1 Z0.200
G1 F1800.000 E0.00000
G1 F1200.00000 X113.913 Y54.061 E2.08131
G1 X114.359 Y53.771 E2.09900
G1 X114.959 Y53.408 E2.12233
G1 X115.129 Y53.312 E2.12882
G1 X115.516 Y53.110 E2.14334
G1 X116.044 Y52.874 E2.16258
G1 X116.297 Y52.770 E2.17168
G1 X116.626 Y52.646 E2.18337
G1 X117.308 Y52.436 E2.20710
G1 X117.489 Y52.387 E2.21334
G1 X117.856 Y52.299 E2.22589
G1 X118.521 Y52.183 E2.24835
G1 X118.687 Y52.159 E2.25392
G1 X119.150 Y52.107 E2.26942
G1 X119.733 Y52.079 E2.28883
G1 X119.993 Y52.074 E2.29748
G1 X120.391 Y52.079 E2.31072
G1 X121.003 Y52.124 E2.33113
G1 X121.219 Y52.147 E2.33836
G1 X121.618 Y52.201 E2.35175
G1 X122.293 Y52.336 E2.37464
G1 X122.487 Y52.382 E2.38127
G1 X122.863 Y52.482 E2.39421
G1 X123.500 Y52.696 E2.41657
G1 X123.648 Y52.750 E2.42181
G1 X124.081 Y52.926 E2.43735
G1 X124.620 Y53.186 E2.45725
G1 X124.835 Y53.297 E2.46530
G1 X125.202 Y53.502 E2.47928
G1 X125.700 Y53.822 E2.49897
G1 X125.944 Y53.991 E2.50884
G1 X126.193 Y54.172 E2.51908
G1 X126.755 Y54.640 E2.54341
G1 X126.856 Y54.730 E2.54791
G1 X127.184 Y55.040 E2.56292
G1 X127.621 Y55.508 E2.58421
G1 X127.745 Y55.650 E2.59049
G1 X128.022 Y55.986 E2.60497
G1 X128.399 Y56.507 E2.62636
G1 X128.993 Y57.381 E2.66151
G1 X129.485 Y58.132 E2.69137
G1 X131.101 Y60.454 E2.78546
G1 X132.782 Y62.729 E2.87954
G1 X134.526 Y64.955 E2.97360
G1 X136.333 Y67.131 E3.06767
G1 X138.201 Y69.255 E3.16175
G1 X140.128 Y71.325 E3.25581
G1 X142.112 Y73.341 E3.34989
G1 X144.153 Y75.299 E3.44396
G1 X146.249 Y77.198 E3.53803
G1 X148.397 Y79.038 E3.63210
G1 X150.596 Y80.816 E3.72616
G1 X152.845 Y82.532 E3.82025
G1 X155.142 Y84.183 E3.91433
G1 X157.194 Y85.577 E3.99684
G1 X157.308 Y85.652 E4.00138
G1 X157.381 Y85.710 E4.00448
G1 X157.613 Y85.912 E4.01471
G1 X157.940 Y86.211 E4.02945
G1 X158.330 Y86.589 E4.04751
G1 X158.438 Y86.699 E4.05264
G1 X158.675 Y86.967 E4.06454
G1 X158.692 Y86.989 E4.06546
G1 X158.730 Y87.039 E4.06755
G1 X158.974 Y87.404 E4.08216
G1 X159.080 Y87.569 E4.08868
G1 X159.308 Y87.949 E4.10342
G1 X159.541 Y88.367 E4.11933
G1 X160.007 Y89.350 E4.15552
G1 X163.827 Y97.812 E4.46431
G1 X164.047 Y98.317 E4.48263
G1 X164.261 Y98.860 E4.50205
G1 X164.475 Y99.524 E4.52525
G1 X164.595 Y99.944 E4.53978
G1 X164.628 Y100.073 E4.54421
G1 X164.698 Y100.416 E4.55585
G1 X164.710 Y100.519 E4.55930
G1 X164.734 Y100.859 E4.57064
G1 X164.750 Y101.232 E4.58305
G1 X164.759 Y101.798 E4.60188
G1 X164.757 Y101.931 E4.60631
G1 X164.718 Y102.949 E4.64019
G1 X164.719 Y102.949 E4.64022
G1 X164.665 Y104.045 E4.67672
G1 X164.606 Y106.873 E4.77080
G1 X164.628 Y109.701 E4.86486
G1 X164.729 Y112.527 E4.95892
G1 X164.910 Y115.350 E5.05300
G1 X165.172 Y118.166 E5.14707
G1 X165.512 Y120.974 E5.24114
G1 X165.932 Y123.771 E5.33521
G1 X166.431 Y126.555 E5.42929
G1 X167.008 Y129.324 E5.52336
G1 X167.664 Y132.075 E5.61743
G1 X168.397 Y134.807 E5.71151
G1 X169.207 Y137.517 E5.80558
G1 X169.739 Y139.101 E5.86116
G1 X169.737 Y139.102 E5.86123
G1 X170.175 Y140.446 E5.90825
G1 X170.184 Y140.476 E5.90929
G1 X170.215 Y140.596 E5.91341
G1 X170.277 Y140.883 E5.92318
G1 X170.325 Y141.399 E5.94041
G1 X170.326 Y141.418 E5.94105
G1 X170.334 Y141.665 E5.94927
G1 X170.336 Y141.824 E5.95456
G1 X170.336 Y154.034 E6.36066
G1 X170.326 Y154.740 E6.38415
G1 X170.321 Y154.869 E6.38844
G1 X170.320 Y154.890 E6.38914
G1 X170.290 Y155.214 E6.39996
G1 X170.287 Y155.236 E6.40070
G1 X170.286 Y155.245 E6.40100
G1 X170.257 Y155.384 E6.40572
G1 X170.175 Y155.702 E6.41665
G1 X170.166 Y155.736 E6.41782
G1 X170.163 Y155.746 E6.41816
G1 X170.112 Y155.880 E6.42293
G1 X169.977 Y156.191 E6.43421
G1 X169.976 Y156.195 E6.43435
G1 X169.961 Y156.223 E6.43540
G1 X169.902 Y156.325 E6.43932
G1 X169.718 Y156.614 E6.45072
G1 X169.712 Y156.623 E6.45108
G1 X169.591 Y156.771 E6.45743
G1 X169.393 Y156.995 E6.46738
G1 X169.367 Y157.021 E6.46860
G1 X169.283 Y157.097 E6.47237
G1 X168.996 Y157.332 E6.48471
G1 X168.994 Y157.334 E6.48480
G1 X168.984 Y157.340 E6.48519
G1 X168.865 Y157.417 E6.48990
G1 X168.562 Y157.594 E6.50157
G1 X168.552 Y157.599 E6.50195
G1 X168.419 Y157.657 E6.50677
G1 X168.096 Y157.783 E6.51830
G1 X168.097 Y157.783 E6.51834
G1 X168.078 Y157.789 E6.51900
G1 X167.958 Y157.820 E6.52312
G1 X167.671 Y157.882 E6.53289
G1 X167.155 Y157.930 E6.55012
G1 X167.135 Y157.931 E6.55079
G1 X166.889 Y157.939 E6.55898
G1 X166.680 Y157.941 E6.56593
G1 X82.774 Y157.940 E9.35665
G1 X81.323 Y157.918 E9.40492
G1 X80.699 Y157.899 E9.42568
G1 X79.922 Y157.864 E9.45155
G1 X79.304 Y157.820 E9.47216
G1 X78.622 Y157.761 E9.49493
G1 X77.910 Y157.690 E9.51872
G1 X77.158 Y157.594 E9.54394
G1 X76.596 Y157.514 E9.56282
G1 X75.782 Y157.387 E9.59022
G1 X75.217 Y157.283 E9.60933
G1 X74.490 Y157.138 E9.63399
G1 X73.816 Y156.994 E9.65691
G1 X73.122 Y156.826 E9.68066
G1 X72.438 Y156.649 E9.70416
G1 X71.754 Y156.463 E9.72773
G1 X71.200 Y156.295 E9.74699
G1 X70.476 Y156.065 E9.77225
G1 X69.810 Y155.844 E9.79559
G1 X69.155 Y155.605 E9.81878
G1 X68.526 Y155.366 E9.84116
G1 X67.850 Y155.099 E9.86534
G1 X67.246 Y154.840 E9.88720
G1 X66.615 Y154.560 E9.91016
G1 X65.942 Y154.249 E9.93481
G1 X65.397 Y153.979 E9.95504
G1 X64.773 Y153.659 E9.97837
G1 X64.093 Y153.298 E10.00397
G1 X63.527 Y152.977 E10.02562
G1 X62.943 Y152.636 E10.04811
G1 X62.301 Y152.248 E10.07306
G1 X61.785 Y151.918 E10.09343
G1 X61.162 Y151.506 E10.11827
G1 X60.606 Y151.126 E10.14067
G1 X60.040 Y150.717 E10.16390
G1 X59.483 Y150.302 E10.18700
G1 X58.936 Y149.882 E10.20994
G1 X58.374 Y149.425 E10.23403
G1 X57.872 Y149.006 E10.25578
G1 X57.301 Y148.515 E10.28083
G1 X56.847 Y148.102 E10.30124
G1 X56.336 Y147.625 E10.32449
G1 X55.809 Y147.120 E10.34877
G1 X55.341 Y146.645 E10.37094
G1 X54.861 Y146.144 E10.39402
G1 X54.369 Y145.616 E10.41803
G1 X53.944 Y145.134 E10.43940
G1 X53.479 Y144.592 E10.46315
G1 X53.013 Y144.033 E10.48736
G1 X52.618 Y143.531 E10.50860
G1 X52.171 Y142.947 E10.53306
G1 X51.721 Y142.340 E10.55819
G1 X51.394 Y141.873 E10.57716
G1 X50.974 Y141.257 E10.60195
G1 X50.586 Y140.670 E10.62536
G1 X50.252 Y140.133 E10.64639
G1 X49.863 Y139.486 E10.67150
G1 X49.500 Y138.863 E10.69548
G1 X49.201 Y138.315 E10.71624
G1 X48.870 Y137.689 E10.73980
G1 X48.532 Y137.029 E10.76446
G1 X48.280 Y136.499 E10.78398
G1 X47.956 Y135.796 E10.80972
G1 X47.679 Y135.170 E10.83249
G1 X47.411 Y134.518 E10.85594
G1 X47.169 Y133.904 E10.87789
G1 X46.913 Y133.229 E10.90190
G1 X46.693 Y132.594 E10.92425
G1 X46.475 Y131.938 E10.94724
G1 X46.259 Y131.254 E10.97110
G1 X46.068 Y130.586 E10.99421
G1 X45.888 Y129.920 E11.01716
G1 X45.712 Y129.232 E11.04078
G1 X45.572 Y128.614 E11.06185
G1 X45.425 Y127.918 E11.08551
G1 X45.283 Y127.201 E11.10982
G1 X45.168 Y126.518 E11.13286
G1 X45.063 Y125.839 E11.15571
G1 X44.966 Y125.149 E11.17889
G1 X44.896 Y124.525 E11.19977
G1 X44.821 Y123.770 E11.22500
G1 X44.763 Y123.082 E11.24797
G1 X44.726 Y122.437 E11.26946
G1 X44.697 Y121.763 E11.29189
G1 X44.675 Y121.042 E11.31589
G1 X44.674 Y120.349 E11.33894
G1 X44.684 Y119.605 E11.36368
G1 X44.703 Y118.913 E11.38671
G1 X44.737 Y118.295 E11.40729
G1 X44.782 Y117.637 E11.42923
G1 X44.844 Y116.869 E11.45486
G1 X44.920 Y116.186 E11.47771
G1 X45.004 Y115.510 E11.50037
G1 X45.107 Y114.772 E11.52515
G1 X45.205 Y114.183 E11.54501
G1 X45.325 Y113.516 E11.56756
G1 X45.477 Y112.740 E11.59386
G1 X45.616 Y112.118 E11.61505
G1 X45.768 Y111.479 E11.63690
G1 X45.963 Y110.710 E11.66329
G1 X46.123 Y110.143 E11.68288
G1 X46.351 Y109.379 E11.70940
G1 X46.539 Y108.779 E11.73031
G1 X46.766 Y108.120 E11.75349
G1 X47.009 Y107.444 E11.77739
G1 X47.251 Y106.801 E11.80024
G1 X47.496 Y106.199 E11.82185
G1 X47.758 Y105.580 E11.84421
G1 X48.068 Y104.876 E11.86980
G1 X48.363 Y104.254 E11.89269
G1 X48.652 Y103.666 E11.91448
G1 X48.977 Y103.025 E11.93839
G1 X49.305 Y102.422 E11.96122
G1 X49.655 Y101.799 E11.98499
G1 X49.984 Y101.232 E12.00679
G1 X50.379 Y100.594 E12.03175
G1 X50.697 Y100.095 E12.05143
G1 X51.120 Y99.451 E12.07705
G1 X51.500 Y98.906 E12.09915
G1 X51.913 Y98.330 E12.12273
G1 X52.322 Y97.777 E12.14560
G1 X52.718 Y97.271 E12.16697
G1 X53.138 Y96.749 E12.18926
G1 X53.616 Y96.172 E12.21418
G1 X54.104 Y95.614 E12.23883
G1 X54.515 Y95.159 E12.25923
G1 X55.017 Y94.617 E12.28380
G1 X55.479 Y94.145 E12.30577
G1 X55.988 Y93.639 E12.32964
G1 X56.485 Y93.159 E12.35262
G1 X56.998 Y92.691 E12.37571
G1 X57.464 Y92.276 E12.39647
G1 X58.079 Y91.745 E12.42349
G1 X58.525 Y91.381 E12.44264
G1 X59.131 Y90.899 E12.46839
G1 X59.667 Y90.486 E12.49090
G1 X60.234 Y90.074 E12.51421
G1 X60.860 Y89.631 E12.53972
G1 X61.928 Y88.895 E12.58286
G1 F1800.00000 E6.08286
G1 Z0.275
G0 F7200.000 X63.297 Y92.070 Z0.275
;TYPE:WALL-OUTER
G1 Z0.200
G1 F1800.000 E12.58286
G1 F1200.00000 X116.200 Y56.614 E14.70105
G1 X116.940 Y56.183 E14.72953
G1 X117.716 Y55.850 E14.75762
G1 X118.517 Y55.620 E14.78534
G1 X119.357 Y55.488 E14.81362
G1 X120.199 Y55.460 E14.84164
G1 X121.038 Y55.536 E14.86966
G1 X121.853 Y55.715 E14.89741
G1 X122.660 Y56.000 E14.92588
G1 X123.415 Y56.379 E14.95397
G1 X124.111 Y56.842 E14.98178
G1 X124.751 Y57.396 E15.00993
G1 X125.311 Y58.016 E15.03772
G1 X125.801 Y58.716 E15.06614
G1 X126.198 Y59.467 E15.09439
G1 X146.622 Y104.719 E16.74568
G1 X155.007 Y100.934 E17.05166
G1 X149.555 Y88.857 E17.49238
G1 X151.479 Y87.988 E17.56259
G1 X152.439 Y87.699 E17.59594
G1 X153.431 Y87.668 E17.62895
G1 X154.392 Y87.893 E17.66178
G1 X155.261 Y88.356 E17.69453
G1 X155.999 Y89.050 E17.72822
G1 X156.524 Y89.896 E17.76134
G1 X161.049 Y99.921 E18.12716
G1 X161.339 Y100.882 E18.16055
G1 X161.368 Y101.882 E18.19382
G1 X161.142 Y102.843 E18.22666
G1 X160.681 Y103.704 E18.25914
G1 X160.001 Y104.430 E18.29223
G1 X159.145 Y104.963 E18.32576
G1 X147.355 Y110.286 E18.75602
G1 X146.395 Y110.575 E18.78936
G1 X145.403 Y110.606 E18.82237
G1 X144.433 Y110.378 E18.85551
G1 X143.565 Y109.913 E18.88826
G1 X142.839 Y109.231 E18.92139
G1 X142.310 Y108.377 E18.95481
G1 X127.631 Y75.855 E20.14157
G1 X127.369 Y75.859 E20.15029
G1 X127.315 Y75.987 E20.15491
G1 X126.920 Y76.672 E20.18121
G1 X126.449 Y77.305 E20.20745
G1 X125.906 Y77.881 E20.23378
G1 X125.303 Y78.386 E20.25994
G1 X124.644 Y78.820 E20.28618
G1 X123.929 Y79.179 E20.31279
G1 X123.193 Y79.447 E20.33884
G1 X122.423 Y79.629 E20.36516
G1 X121.630 Y79.723 E20.39172
G1 X120.846 Y79.723 E20.41780
G1 X120.061 Y79.631 E20.44408
G1 X119.286 Y79.447 E20.47058
G1 X118.550 Y79.179 E20.49663
G1 X117.836 Y78.822 E20.52318
G1 X117.180 Y78.389 E20.54932
G1 X116.693 Y77.981 E20.57045
G1 X116.440 Y78.170 E20.58096
G1 X116.628 Y78.608 E20.59681
G1 X116.855 Y79.366 E20.62313
G1 X116.993 Y80.143 E20.64937
G1 X117.037 Y80.933 E20.67569
G1 X116.994 Y81.724 E20.70204
G1 X116.856 Y82.501 E20.72829
G1 X116.629 Y83.259 E20.75460
G1 X116.314 Y83.989 E20.78105
G1 X115.920 Y84.672 E20.80727
G1 X115.449 Y85.305 E20.83352
G1 X114.906 Y85.881 E20.85984
G1 X114.303 Y86.386 E20.88600
G1 X113.644 Y86.820 E20.91225
G1 X112.929 Y87.179 E20.93886
G1 X112.193 Y87.447 E20.96491
G1 X111.423 Y87.629 E20.99123
G1 X110.630 Y87.723 E21.01779
G1 X109.846 Y87.723 E21.04386
G1 X109.061 Y87.631 E21.07015
G1 X108.286 Y87.447 E21.09664
G1 X107.551 Y87.179 E21.12266
G1 X106.837 Y86.822 E21.14922
G1 X106.181 Y86.389 E21.17536
G1 X105.694 Y85.981 E21.19649
G1 X105.441 Y86.170 E21.20699
G1 X105.629 Y86.608 E21.22285
G1 X105.856 Y87.366 E21.24916
G1 X105.994 Y88.143 E21.27541
G1 X106.038 Y88.933 E21.30173
G1 X105.995 Y89.724 E21.32807
G1 X105.857 Y90.501 E21.35432
G1 X105.630 Y91.259 E21.38064
G1 X105.315 Y91.989 E21.40708
G1 X104.921 Y92.672 E21.43331
G1 X104.450 Y93.305 E21.45955
G1 X103.907 Y93.881 E21.48588
G1 X103.304 Y94.386 E21.51204
G1 X102.645 Y94.820 E21.53829
G1 X101.930 Y95.179 E21.56490
G1 X101.194 Y95.447 E21.59095
G1 X100.424 Y95.629 E21.61726
G1 X99.631 Y95.723 E21.64382
G1 X98.847 Y95.723 E21.66990
G1 X98.062 Y95.631 E21.69619
G1 X97.287 Y95.447 E21.72268
G1 X96.551 Y95.179 E21.74873
G1 X95.837 Y94.822 E21.77528
G1 X95.181 Y94.389 E21.80143
G1 X94.570 Y93.877 E21.82794
G1 X94.035 Y93.310 E21.85387
G1 X93.560 Y92.670 E21.88038
G1 X93.166 Y91.989 E21.90654
G1 X92.852 Y91.263 E21.93285
G1 X92.624 Y90.501 E21.95931
G1 X92.487 Y89.726 E21.98548
G1 X92.442 Y88.935 E22.01183
G1 X92.487 Y88.143 E22.03822
G1 X92.625 Y87.362 E22.06460
G1 X92.850 Y86.610 E22.09071
G1 X93.165 Y85.880 E22.11715
G1 X93.340 Y85.580 E22.12870
G1 X93.108 Y85.362 E22.13929
G1 X69.780 Y100.997 E23.07333
G1 X68.508 Y101.916 E23.12552
G1 X67.302 Y102.925 E23.17782
G1 X66.174 Y104.014 E23.22997
G1 X65.120 Y105.185 E23.28237
G1 X64.148 Y106.437 E23.33509
G1 X63.275 Y107.738 E23.38720
G1 X62.499 Y109.095 E23.43919
G1 X61.814 Y110.519 E23.49175
G1 X61.233 Y111.980 E23.54404
G1 X60.758 Y113.480 E23.59638
G1 X60.391 Y115.012 E23.64877
G1 X60.135 Y116.550 E23.70063
G1 X59.985 Y118.120 E23.75309
G1 X59.948 Y119.695 E23.80549
G1 X60.023 Y121.270 E23.85793
G1 X60.206 Y122.819 E23.90981
G1 X60.502 Y124.369 E23.96229
G1 X60.909 Y125.892 E24.01473
G1 X61.421 Y127.384 E24.06719
G1 X62.032 Y128.820 E24.11910
G1 X62.749 Y130.223 E24.17150
G1 X63.565 Y131.574 E24.22399
G1 X64.466 Y132.850 E24.27595
G1 X65.463 Y134.069 E24.32833
G1 X66.544 Y135.216 E24.38075
G1 X67.694 Y136.274 E24.43272
G1 X68.925 Y137.257 E24.48512
G1 X70.213 Y138.142 E24.53710
G1 X71.568 Y138.939 E24.58938
G1 X72.976 Y139.638 E24.64166
G1 X74.438 Y140.240 E24.69425
G1 X75.926 Y140.730 E24.74636
G1 X77.455 Y141.119 E24.79883
G1 X78.998 Y141.394 E24.85096
G1 X80.562 Y141.562 E24.90328
G1 X82.133 Y141.618 E24.95556
G1 X166.936 Y141.618 E27.77612
G1 X166.936 Y154.541 E28.20594
G1 X82.143 Y154.541 E31.02617
G1 X80.243 Y154.488 E31.08939
G1 X78.374 Y154.333 E31.15177
G1 X76.496 Y154.070 E31.21484
G1 X74.648 Y153.708 E31.27747
G1 X72.810 Y153.239 E31.34056
G1 X71.005 Y152.671 E31.40350
G1 X69.239 Y152.005 E31.46627
G1 X67.509 Y151.241 E31.52918
G1 X65.831 Y150.386 E31.59181
G1 X64.192 Y149.433 E31.65487
G1 X62.621 Y148.399 E31.71743
G1 X61.096 Y147.269 E31.78055
G1 X59.642 Y146.060 E31.84345
G1 X58.258 Y144.775 E31.90626
G1 X56.955 Y143.422 E31.96874
G1 X55.711 Y141.978 E32.03213
G1 X54.554 Y140.473 E32.09527
G1 X53.495 Y138.927 E32.15760
G1 X52.519 Y137.315 E32.22027
G1 X51.624 Y135.633 E32.28364
G1 X50.834 Y133.929 E32.34611
G1 X50.132 Y132.162 E32.40935
G1 X49.532 Y130.368 E32.47227
G1 X49.036 Y128.554 E32.53482
G1 X48.636 Y126.693 E32.59813
G1 X48.342 Y124.823 E32.66109
G1 X48.152 Y122.941 E32.72400
G1 X48.065 Y121.069 E32.78633
G1 X48.085 Y119.189 E32.84887
G1 X48.208 Y117.301 E32.91179
G1 X48.437 Y115.415 E32.97498
G1 X48.766 Y113.567 E33.03742
G1 X49.199 Y111.730 E33.10019
G1 X49.735 Y109.911 E33.16326
G1 X50.365 Y108.144 E33.22565
G1 X51.100 Y106.396 E33.28872
G1 X51.933 Y104.688 E33.35193
G1 X52.845 Y103.052 E33.41423
G1 X53.859 Y101.451 E33.47726
G1 X54.963 Y99.904 E33.54047
G1 X56.141 Y98.433 E33.60315
G1 X57.394 Y97.035 E33.66559
G1 X58.743 Y95.688 E33.72900
G1 X60.145 Y94.436 E33.79151
