;FLAVOR:RepRap
;TIME:5882
M104 S220.000000
M109 S220.000000
; -- START GCODE --
G21                     ;set units to millimetres
G90                     ;set to absolute positioning
M106 S0                 ;set fan speed to zero (turned off)
G28 X0 Y0               ;move to the X/Y origin (Home)
G28 Z0                  ;move to the Z origin (Home)
G1 Z15.0 F1200          ;move Z to position 15.0 mm
G92 E0                  ;zero the extruded length
G1 E20 F200             ;extrude 20mm of feed stock
G92 E0                  ;zero the extruded length again
G1 F7200                ;set feedrate to 120 mm/sec
; -- end of START GCODE --
;Generated with Cura_SteamEngine 2.1.3
;LAYER_COUNT:85
;LAYER:0
M107
G1 F1800.000000 E-6.50000
G1 Z20.075
G0 F7200.000 X63.258 Y74.201 Z0.275
;TYPE:SKIRT
G1 Z0.200
G1 F1800.000 E0.00000
G1 F1200.00000 X63.441 Y74.052 E0.00785
G1 X64.078 Y73.585 E0.03412
G1 X64.631 Y73.253 E0.05557
G1 X64.829 Y73.145 E0.06307
G1 X65.540 Y72.803 E0.08932
G1 X66.233 Y72.549 E0.11386
G1 X66.447 Y72.482 E0.12132
G1 X67.212 Y72.285 E0.14760
G1 X68.265 Y72.143 E0.18294
G1 X68.629 Y72.119 E0.19507
G1 X69.142 Y72.102 E0.21214
G1 X138.425 Y72.102 E2.51650
G1 X139.108 Y72.132 E2.53924
G1 X139.381 Y72.156 E2.54836
G1 X140.163 Y72.265 E2.57462
G1 X140.997 Y72.472 E2.60320
G1 X141.211 Y72.538 E2.61065
G1 X141.953 Y72.809 E2.63692
G1 X142.645 Y73.143 E2.66248
G1 X142.845 Y73.252 E2.67005
G1 X143.518 Y73.665 E2.69632
G1 X144.049 Y74.063 E2.71839
G1 X144.230 Y74.211 E2.72616
G1 X144.816 Y74.741 E2.75244
G1 X145.231 Y75.192 E2.77283
G1 X145.386 Y75.374 E2.78078
G1 X145.867 Y76.000 E2.80704
G1 X146.136 Y76.418 E2.82357
G1 X146.262 Y76.628 E2.83171
G1 X146.634 Y77.325 E2.85799
G1 X146.825 Y77.766 E2.87398
G1 X146.917 Y77.998 E2.88228
G1 X147.170 Y78.746 E2.90854
G1 X147.281 Y79.184 E2.92357
G1 X147.334 Y79.423 E2.93171
G1 X147.493 Y80.480 E2.96726
G1 X147.513 Y80.726 E2.97547
G1 X147.539 Y81.358 E2.99651
G1 X147.539 Y109.047 E3.91745
G1 X147.518 Y109.619 E3.93649
G1 X147.500 Y109.864 E3.94466
G1 X147.336 Y110.981 E3.98221
G1 X147.283 Y111.220 E3.99035
G1 X147.073 Y111.981 E4.01661
G1 X146.902 Y112.449 E4.03318
G1 X146.808 Y112.682 E4.04154
G1 X146.475 Y113.399 E4.06783
G1 X146.282 Y113.744 E4.08098
G1 X146.158 Y113.953 E4.08906
G1 X145.721 Y114.611 E4.11533
G1 X145.388 Y115.030 E4.13313
G1 X145.233 Y115.212 E4.14108
G1 X144.692 Y115.787 E4.16734
G1 X144.220 Y116.204 E4.18829
G1 X144.037 Y116.353 E4.19614
G1 X143.400 Y116.820 E4.22241
G1 X142.847 Y117.152 E4.24386
G1 X142.649 Y117.260 E4.25137
G1 X141.938 Y117.602 E4.27761
G1 X141.245 Y117.856 E4.30216
G1 X141.031 Y117.923 E4.30961
G1 X140.266 Y118.120 E4.33589
G1 X139.412 Y118.246 E4.36460
G1 X139.150 Y118.270 E4.37335
G1 X138.438 Y118.303 E4.39706
G1 X69.000 Y118.303 E6.70657
G1 X68.154 Y118.257 E6.73475
G1 X67.934 Y118.233 E6.74211
G1 X67.154 Y118.108 E6.76839
G1 X66.481 Y117.933 E6.79152
G1 X66.267 Y117.867 E6.79897
G1 X65.525 Y117.596 E6.82524
G1 X64.833 Y117.262 E6.85080
G1 X64.633 Y117.153 E6.85837
G1 X63.960 Y116.740 E6.88463
G1 X63.429 Y116.342 E6.90671
G1 X63.248 Y116.194 E6.91448
G1 X62.662 Y115.664 E6.94076
G1 X62.247 Y115.213 E6.96115
G1 X62.092 Y115.031 E6.96910
G1 X61.611 Y114.405 E6.99535
G1 X61.342 Y113.987 E7.01189
G1 X61.216 Y113.777 E7.02003
G1 X60.844 Y113.080 E7.04631
G1 X60.643 Y112.612 E7.06325
G1 X60.552 Y112.380 E7.07154
G1 X60.205 Y111.251 E7.11082
G1 X60.151 Y111.012 E7.11897
G1 X59.982 Y109.894 E7.15658
G1 X59.963 Y109.648 E7.16479
G1 X59.940 Y109.047 E7.18479
G1 X59.940 Y81.358 E8.10573
G1 X59.959 Y80.818 E8.12370
G1 X59.976 Y80.573 E8.13187
G1 X60.070 Y79.789 E8.15813
G1 X60.149 Y79.394 E8.17153
G1 X60.203 Y79.155 E8.17968
G1 X60.416 Y78.395 E8.20593
G1 X60.567 Y77.983 E8.22053
G1 X60.660 Y77.750 E8.22887
G1 X60.989 Y77.032 E8.25514
G1 X61.196 Y76.661 E8.26927
G1 X61.320 Y76.452 E8.27735
G1 X61.757 Y75.794 E8.30363
G1 X62.090 Y75.375 E8.32143
G1 X62.245 Y75.193 E8.32938
G1 X62.786 Y74.618 E8.35564
G1 X63.258 Y74.201 E8.37658
G0 F7200.00000 X63.511 Y74.512
G1 F1200.000 X63.694 Y74.363 E8.38443
G1 X64.315 Y73.909 E8.41002
G1 X64.822 Y73.605 E8.42968
G1 X65.020 Y73.497 E8.43718
G1 X65.714 Y73.164 E8.46278
G1 X66.353 Y72.931 E8.48541
G1 X66.567 Y72.864 E8.49286
G1 X67.312 Y72.673 E8.51844
G1 X68.291 Y72.542 E8.55130
G1 X68.655 Y72.518 E8.56343
G1 X69.142 Y72.502 E8.57964
G1 X138.425 Y72.502 E10.88400
G1 X139.073 Y72.530 E10.90557
G1 X139.346 Y72.554 E10.91469
G1 X140.108 Y72.662 E10.94028
G1 X140.879 Y72.855 E10.96672
G1 X141.093 Y72.921 E10.97417
G1 X141.815 Y73.185 E10.99974
G1 X142.453 Y73.494 E11.02331
G1 X142.653 Y73.603 E11.03089
G1 X143.309 Y74.006 E11.05650
G1 X143.796 Y74.372 E11.07676
G1 X143.977 Y74.520 E11.08453
G1 X144.547 Y75.037 E11.11013
G1 X144.927 Y75.451 E11.12882
G1 X145.082 Y75.633 E11.13677
G1 X145.549 Y76.244 E11.16235
G1 X145.793 Y76.624 E11.17737
G1 X145.919 Y76.834 E11.18551
G1 X146.280 Y77.513 E11.21109
G1 X146.453 Y77.913 E11.22559
G1 X146.545 Y78.145 E11.23389
G1 X146.791 Y78.874 E11.25948
G1 X146.890 Y79.271 E11.27309
G1 X146.943 Y79.510 E11.28123
G1 X147.095 Y80.512 E11.31494
G1 X147.115 Y80.758 E11.32315
G1 X147.139 Y81.358 E11.34312
G1 X147.139 Y109.047 E12.26406
G1 X147.119 Y109.589 E12.28210
G1 X147.101 Y109.834 E12.29027
G1 X146.945 Y110.894 E12.32590
G1 X146.892 Y111.133 E12.33405
G1 X146.687 Y111.874 E12.35962
G1 X146.531 Y112.300 E12.37471
G1 X146.437 Y112.533 E12.38306
G1 X145.938 Y113.540 E12.42044
G1 X145.814 Y113.749 E12.42852
G1 X145.388 Y114.389 E12.45410
G1 X145.084 Y114.771 E12.47033
G1 X144.929 Y114.953 E12.47828
G1 X144.400 Y115.512 E12.50388
G1 X143.967 Y115.893 E12.52306
G1 X143.784 Y116.042 E12.53091
G1 X143.163 Y116.496 E12.55650
G1 X142.656 Y116.800 E12.57616
G1 X142.458 Y116.908 E12.58366
G1 X141.764 Y117.241 E12.60927
G1 X141.125 Y117.474 E12.63189
G1 X140.911 Y117.541 E12.63935
G1 X140.166 Y117.732 E12.66493
G1 X139.375 Y117.848 E12.69152
G1 X139.113 Y117.872 E12.70027
G1 X138.438 Y117.903 E12.72274
G1 X69.000 Y117.903 E15.03226
G1 X68.197 Y117.859 E15.05901
G1 X67.977 Y117.835 E15.06637
G1 X67.218 Y117.712 E15.09194
G1 X66.599 Y117.550 E15.11322
G1 X66.385 Y117.484 E15.12067
G1 X65.663 Y117.220 E15.14624
G1 X65.025 Y116.911 E15.16982
G1 X64.825 Y116.802 E15.17739
G1 X64.169 Y116.399 E15.20300
G1 X63.682 Y116.033 E15.22326
G1 X63.501 Y115.885 E15.23104
G1 X62.931 Y115.368 E15.25663
G1 X62.551 Y114.954 E15.27532
G1 X62.396 Y114.772 E15.28327
G1 X61.929 Y114.161 E15.30885
G1 X61.685 Y113.781 E15.32387
G1 X61.559 Y113.571 E15.33202
G1 X61.198 Y112.892 E15.35760
G1 X61.015 Y112.466 E15.37302
G1 X60.924 Y112.234 E15.38131
G1 X60.595 Y111.163 E15.41857
G1 X60.541 Y110.924 E15.42672
G1 X60.381 Y109.863 E15.46241
G1 X60.362 Y109.617 E15.47061
G1 X60.340 Y109.047 E15.48959
G1 X60.340 Y81.358 E16.41053
G1 X60.358 Y80.846 E16.42757
G1 X60.375 Y80.601 E16.43573
G1 X60.539 Y79.482 E16.47335
G1 X60.593 Y79.243 E16.48150
G1 X60.801 Y78.503 E16.50707
G1 X60.938 Y78.131 E16.52025
G1 X61.031 Y77.898 E16.52859
G1 X61.540 Y76.865 E16.56690
G1 X61.664 Y76.656 E16.57498
G1 X62.090 Y76.016 E16.60055
G1 X62.394 Y75.634 E16.61679
G1 X62.549 Y75.452 E16.62474
G1 X63.078 Y74.893 E16.65034
G1 X63.511 Y74.512 E16.66952
G0 F7200.00000 X63.763 Y74.822
G1 F1200.000 X63.946 Y74.673 E16.67737
G1 X64.551 Y74.232 E16.70227
G1 X65.014 Y73.956 E16.72020
G1 X65.212 Y73.848 E16.72770
G1 X65.887 Y73.525 E16.75259
G1 X66.473 Y73.313 E16.77331
G1 X66.687 Y73.246 E16.78077
G1 X67.411 Y73.061 E16.80563
G1 X68.317 Y72.941 E16.83602
G1 X68.681 Y72.917 E16.84816
G1 X69.142 Y72.902 E16.86350
G1 X138.425 Y72.902 E19.16786
G1 X139.038 Y72.929 E19.18827
G1 X139.311 Y72.953 E19.19738
G1 X140.052 Y73.058 E19.22227
G1 X140.761 Y73.237 E19.24660
G1 X140.975 Y73.303 E19.25404
G1 X141.677 Y73.561 E19.27892
G1 X142.262 Y73.846 E19.30056
G1 X142.462 Y73.955 E19.30814
G1 X143.099 Y74.347 E19.33302
G1 X143.543 Y74.682 E19.35152
G1 X143.724 Y74.830 E19.35929
G1 X144.277 Y75.334 E19.38418
G1 X144.622 Y75.710 E19.40115
G1 X144.777 Y75.892 E19.40910
G1 X145.231 Y76.487 E19.43399
G1 X145.450 Y76.830 E19.44753
G1 X145.576 Y77.040 E19.45568
G1 X145.927 Y77.701 E19.48057
G1 X146.081 Y78.061 E19.49359
G1 X146.173 Y78.293 E19.50189
G1 X146.500 Y79.358 E19.53895
G1 X146.553 Y79.597 E19.54709
G1 X146.696 Y80.545 E19.57898
G1 X146.716 Y80.791 E19.58718
G1 X146.739 Y81.358 E19.60606
G1 X146.739 Y109.047 E20.52700
G1 X146.720 Y109.560 E20.54407
G1 X146.702 Y109.805 E20.55224
G1 X146.555 Y110.807 E20.58593
G1 X146.502 Y111.046 E20.59407
G1 X146.301 Y111.767 E20.61896
G1 X146.160 Y112.150 E20.63254
G1 X146.066 Y112.383 E20.64089
G1 X145.594 Y113.336 E20.67627
G1 X145.470 Y113.545 E20.68435
G1 X145.055 Y114.167 E20.70922
G1 X144.779 Y114.512 E20.72391
G1 X144.624 Y114.694 E20.73186
G1 X144.109 Y115.236 E20.75673
G1 X143.715 Y115.583 E20.77419
G1 X143.532 Y115.732 E20.78204
G1 X142.927 Y116.173 E20.80694
G1 X142.464 Y116.449 E20.82487
G1 X142.266 Y116.557 E20.83237
G1 X141.591 Y116.880 E20.85726
G1 X141.005 Y117.092 E20.87799
G1 X140.791 Y117.159 E20.88545
G1 X140.067 Y117.344 E20.91030
G1 X139.339 Y117.450 E20.93477
G1 X139.077 Y117.474 E20.94352
G1 X138.438 Y117.503 E20.96480
G1 X69.000 Y117.503 E23.27431
G1 X68.241 Y117.462 E23.29959
G1 X68.021 Y117.438 E23.30695
G1 X67.283 Y117.317 E23.33183
G1 X66.717 Y117.168 E23.35129
G1 X66.503 Y117.102 E23.35874
G1 X65.801 Y116.844 E23.38362
G1 X65.216 Y116.559 E23.40526
G1 X65.016 Y116.450 E23.41284
G1 X64.379 Y116.058 E23.43772
G1 X63.935 Y115.723 E23.45621
G1 X63.754 Y115.575 E23.46399
G1 X63.201 Y115.071 E23.48888
G1 X62.856 Y114.695 E23.50585
G1 X62.701 Y114.513 E23.51380
G1 X62.247 Y113.918 E23.53869
G1 X62.028 Y113.575 E23.55223
G1 X61.902 Y113.365 E23.56037
G1 X61.551 Y112.704 E23.58527
G1 X61.387 Y112.320 E23.59915
G1 X61.296 Y112.088 E23.60744
G1 X60.985 Y111.075 E23.64269
G1 X60.931 Y110.836 E23.65084
G1 X60.780 Y109.832 E23.68461
G1 X60.761 Y109.586 E23.69281
G1 X60.740 Y109.047 E23.71075
G1 X60.740 Y81.358 E24.63169
G1 X60.757 Y80.873 E24.64783
G1 X60.774 Y80.628 E24.65600
G1 X60.929 Y79.570 E24.69157
G1 X60.983 Y79.331 E24.69972
G1 X61.310 Y78.279 E24.73636
G1 X61.403 Y78.046 E24.74470
G1 X61.884 Y77.069 E24.78092
G1 X62.008 Y76.860 E24.78900
G1 X62.423 Y76.238 E24.81387
G1 X62.699 Y75.893 E24.82857
G1 X62.854 Y75.711 E24.83652
G1 X63.369 Y75.169 E24.86139
G1 X63.763 Y74.822 E24.87885
G0 F7200.00000 X64.016 Y75.132
G1 F1200.000 X64.199 Y74.983 E24.88670
G1 X64.786 Y74.556 E24.91084
G1 X65.206 Y74.307 E24.92708
G1 X65.404 Y74.199 E24.93458
G1 X66.059 Y73.887 E24.95871
G1 X66.592 Y73.694 E24.97757
G1 X66.806 Y73.627 E24.98503
G1 X67.510 Y73.449 E25.00918
G1 X68.344 Y73.340 E25.03715
G1 X68.708 Y73.316 E25.04928
G1 X69.142 Y73.302 E25.06373
G1 X138.425 Y73.302 E27.36809
G1 X139.003 Y73.327 E27.38733
G1 X139.276 Y73.351 E27.39645
G1 X139.995 Y73.455 E27.42061
G1 X140.643 Y73.619 E27.44284
G1 X140.857 Y73.685 E27.45029
G1 X141.538 Y73.937 E27.47444
G1 X142.070 Y74.197 E27.49414
G1 X142.270 Y74.306 E27.50171
G1 X142.888 Y74.688 E27.52588
G1 X143.290 Y74.992 E27.54264
G1 X143.471 Y75.140 E27.55042
G1 X144.007 Y75.630 E27.57457
G1 X144.318 Y75.970 E27.58990
G1 X144.473 Y76.152 E27.59785
G1 X145.107 Y77.035 E27.63400
G1 X145.233 Y77.245 E27.64215
G1 X145.709 Y78.208 E27.67788
G1 X145.801 Y78.440 E27.68618
G1 X146.109 Y79.444 E27.72111
G1 X146.162 Y79.683 E27.72925
G1 X146.297 Y80.577 E27.75932
G1 X146.317 Y80.823 E27.76753
G1 X146.339 Y81.358 E27.78534
G1 X146.339 Y109.047 E28.70628
G1 X146.321 Y109.531 E28.72239
G1 X146.303 Y109.776 E28.73056
G1 X146.164 Y110.721 E28.76233
G1 X146.111 Y110.960 E28.77047
G1 X145.915 Y111.659 E28.79461
G1 X145.789 Y112.000 E28.80671
G1 X145.695 Y112.233 E28.81506
G1 X145.250 Y113.132 E28.84843
G1 X145.126 Y113.341 E28.85651
G1 X144.722 Y113.944 E28.88065
G1 X144.475 Y114.252 E28.89378
G1 X144.320 Y114.434 E28.90173
G1 X143.819 Y114.961 E28.92592
G1 X143.462 Y115.273 E28.94169
G1 X143.279 Y115.422 E28.94954
G1 X142.692 Y115.849 E28.97368
G1 X142.272 Y116.098 E28.98992
G1 X142.074 Y116.206 E28.99742
G1 X141.419 Y116.518 E29.02155
G1 X140.886 Y116.711 E29.04040
G1 X140.672 Y116.778 E29.04786
G1 X139.968 Y116.956 E29.07201
G1 X139.302 Y117.051 E29.09439
G1 X139.040 Y117.075 E29.10314
G1 X138.438 Y117.103 E29.12318
G1 X69.000 Y117.103 E31.43270
G1 X68.284 Y117.064 E31.45655
G1 X68.064 Y117.040 E31.46391
G1 X67.348 Y116.922 E31.48805
G1 X66.835 Y116.786 E31.50570
G1 X66.621 Y116.720 E31.51315
G1 X65.940 Y116.468 E31.53730
G1 X65.408 Y116.208 E31.55699
G1 X65.208 Y116.099 E31.56457
G1 X64.590 Y115.717 E31.58873
G1 X64.188 Y115.413 E31.60550
G1 X64.007 Y115.265 E31.61327
G1 X63.471 Y114.775 E31.63743
G1 X63.160 Y114.435 E31.65275
G1 X63.005 Y114.253 E31.66070
G1 X62.371 Y113.370 E31.69686
G1 X62.245 Y113.160 E31.70500
G1 X61.906 Y112.517 E31.72918
G1 X61.760 Y112.174 E31.74158
G1 X61.669 Y111.942 E31.74987
G1 X61.375 Y110.987 E31.78310
G1 X61.321 Y110.748 E31.79125
G1 X61.179 Y109.801 E31.82310
G1 X61.160 Y109.555 E31.83131
G1 X61.140 Y109.047 E31.84822
G1 X61.140 Y81.358 E32.76916
G1 X61.156 Y80.901 E32.78437
G1 X61.173 Y80.656 E32.79254
G1 X61.319 Y79.658 E32.82608
G1 X61.373 Y79.419 E32.83423
G1 X61.681 Y78.427 E32.86878
G1 X61.774 Y78.194 E32.87712
G1 X62.228 Y77.273 E32.91128
G1 X62.352 Y77.064 E32.91936
G1 X62.756 Y76.461 E32.94350
G1 X63.003 Y76.153 E32.95663
G1 X63.158 Y75.971 E32.96458
G1 X63.659 Y75.444 E32.98877
G1 X64.016 Y75.132 E33.00454
G0 F7200.00000 X64.268 Y75.442
G1 F1200.000 X64.451 Y75.293 E33.01239
G1 X65.022 Y74.880 E33.03582
G1 X65.397 Y74.658 E33.05032
G1 X65.595 Y74.550 E33.05782
G1 X66.231 Y74.249 E33.08122
G1 X66.712 Y74.076 E33.09822
G1 X66.926 Y74.009 E33.10568
G1 X67.608 Y73.837 E33.12908
G1 X68.370 Y73.739 E33.15463
G1 X68.734 Y73.715 E33.16676
G1 X69.142 Y73.702 E33.18034
G1 X138.425 Y73.702 E35.48470
G1 X138.968 Y73.726 E35.50278
G1 X139.241 Y73.750 E35.51189
G1 X139.938 Y73.851 E35.53532
G1 X140.525 Y74.001 E35.55547
G1 X140.739 Y74.067 E35.56292
G1 X141.399 Y74.313 E35.58634
G1 X141.879 Y74.548 E35.60412
G1 X142.079 Y74.657 E35.61170
G1 X142.677 Y75.028 E35.63510
G1 X143.037 Y75.301 E35.65013
G1 X143.218 Y75.449 E35.65791
G1 X143.736 Y75.925 E35.68130
G1 X144.013 Y76.229 E35.69498
G1 X144.168 Y76.411 E35.70293
G1 X144.764 Y77.241 E35.73692
G1 X144.890 Y77.451 E35.74507
G1 X145.337 Y78.356 E35.77864
G1 X145.429 Y78.588 E35.78694
G1 X145.719 Y79.531 E35.81975
G1 X145.772 Y79.770 E35.82789
G1 X145.899 Y80.610 E35.85615
G1 X145.919 Y80.856 E35.86436
G1 X145.939 Y81.358 E35.88107
G1 X145.939 Y109.047 E36.80201
G1 X145.922 Y109.501 E36.81712
G1 X145.904 Y109.746 E36.82529
G1 X145.774 Y110.634 E36.85514
G1 X145.721 Y110.873 E36.86328
G1 X145.418 Y111.851 E36.89734
G1 X145.324 Y112.084 E36.90569
G1 X144.906 Y112.928 E36.93702
G1 X144.782 Y113.137 E36.94510
G1 X144.170 Y113.993 E36.98010
G1 X144.015 Y114.175 E36.98805
G1 X143.529 Y114.684 E37.01146
G1 X143.210 Y114.963 E37.02555
G1 X143.027 Y115.112 E37.03340
G1 X142.456 Y115.525 E37.05684
G1 X142.081 Y115.747 E37.07134
G1 X141.883 Y115.855 E37.07884
G1 X141.247 Y116.156 E37.10224
G1 X140.766 Y116.329 E37.11924
G1 X140.552 Y116.396 E37.12670
G1 X139.870 Y116.568 E37.15009
G1 X139.266 Y116.653 E37.17038
G1 X139.004 Y116.677 E37.17913
G1 X138.438 Y116.703 E37.19798
G1 X69.000 Y116.703 E39.50749
G1 X68.328 Y116.666 E39.52988
G1 X68.108 Y116.642 E39.53724
G1 X67.413 Y116.526 E39.56067
G1 X66.953 Y116.404 E39.57650
G1 X66.739 Y116.338 E39.58395
G1 X66.079 Y116.092 E39.60738
G1 X65.599 Y115.857 E39.62515
G1 X65.399 Y115.748 E39.63273
G1 X64.801 Y115.377 E39.65614
G1 X64.441 Y115.104 E39.67116
G1 X64.260 Y114.956 E39.67894
G1 X63.742 Y114.480 E39.70234
G1 X63.465 Y114.176 E39.71602
G1 X63.310 Y113.994 E39.72397
G1 X62.714 Y113.164 E39.75795
G1 X62.588 Y112.954 E39.76610
G1 X62.132 Y112.028 E39.80043
G1 X62.041 Y111.796 E39.80872
G1 X61.765 Y110.898 E39.83997
G1 X61.711 Y110.659 E39.84811
G1 X61.577 Y109.770 E39.87802
G1 X61.558 Y109.524 E39.88622
G1 X61.540 Y109.047 E39.90210
G1 X61.540 Y81.358 E40.82304
G1 X61.555 Y80.929 E40.83732
G1 X61.572 Y80.684 E40.84549
G1 X61.709 Y79.747 E40.87698
