;FLAVOR:UltiGCode
;TIME:1238
;MATERIAL:2654
;MATERIAL2:0
;NOZZLE_DIAMETER:0.4

;Generated with Cura_SteamEngine 2.1.3
;LAYER_COUNT:120
;LAYER:0
M107
G10
G0 F7200.000000 X112.730 Y112.058 Z0.300
;TYPE:WALL-OUTER
G11
G1 F1800.000 X113.605 Y111.229 E0.14464
G1 X114.166 Y110.977 E0.21844
G1 X114.793 Y110.779 E0.29734
G1 X115.423 Y110.659 E0.37430
G1 X116.062 Y110.613 E0.45118
G1 X116.717 Y110.644 E0.52987
G1 X117.349 Y110.749 E0.60675
G1 X117.974 Y110.931 E0.68486
G1 X118.550 Y111.176 E0.75998
G1 X119.510 Y111.996 E0.91148
G1 X120.431 Y112.867 E1.06360
G1 X121.321 Y113.798 E1.21815
G1 X122.158 Y114.763 E1.37144
G1 X122.941 Y115.760 E1.52357
G1 X123.685 Y116.813 E1.67829
G1 X124.370 Y117.892 E1.83166
G1 X125.002 Y119.002 E1.98493
G1 X125.582 Y120.151 E2.13938
G1 X126.097 Y121.310 E2.29158
G1 X126.558 Y122.502 E2.44494
G1 X126.960 Y123.714 E2.59817
G1 X127.302 Y124.946 E2.75160
G1 X127.583 Y126.192 E2.90488
G1 X127.801 Y127.451 E3.05821
G1 X127.958 Y128.728 E3.21260
G1 X128.052 Y129.993 E3.36482
G1 X128.083 Y131.225 E3.51271
G1 X127.732 Y132.023 E3.61732
G1 X127.312 Y132.808 E3.72416
G1 X126.812 Y133.589 E3.83544
G1 X126.272 Y134.300 E3.94257
G1 X125.662 Y134.987 E4.05282
G1 X125.029 Y135.595 E4.15815
G1 X124.058 Y136.050 E4.28682
G1 X123.015 Y136.464 E4.42148
G1 X121.952 Y136.818 E4.55593
G1 X120.873 Y137.107 E4.68997
G1 X119.778 Y137.331 E4.82410
G1 X118.667 Y137.492 E4.95881
G1 X117.567 Y137.585 E5.09128
G1 X116.447 Y137.615 E5.22573
G1 X115.325 Y137.578 E5.36044
G1 X114.226 Y137.478 E5.49287
G1 X113.116 Y137.310 E5.62758
G1 X112.024 Y137.079 E5.76152
G1 X110.955 Y136.786 E5.89453
G1 X109.896 Y136.429 E6.02864
G1 X108.873 Y136.015 E6.16107
G1 X107.878 Y135.542 E6.29328
G1 X107.295 Y134.936 E6.39418
G1 X106.725 Y134.251 E6.50112
G1 X106.215 Y133.541 E6.60602
G1 X105.743 Y132.773 E6.71420
G1 X105.345 Y132.007 E6.81778
G1 X105.007 Y131.228 E6.91968
G1 X105.004 Y130.014 E7.06537
G1 X105.064 Y128.755 E7.21662
G1 X105.181 Y127.520 E7.36548
G1 X105.361 Y126.272 E7.51679
G1 X105.595 Y125.053 E7.66574
G1 X105.891 Y123.838 E7.81580
G1 X106.245 Y122.638 E7.96594
G1 X106.655 Y121.456 E8.11607
G1 X107.125 Y120.287 E8.26726
G1 X107.643 Y119.158 E8.41632
G1 X108.223 Y118.039 E8.56757
G1 X108.851 Y116.957 E8.71769
G1 X109.535 Y115.898 E8.86898
G1 X110.259 Y114.890 E9.01790
G1 X111.035 Y113.908 E9.16810
G1 X111.856 Y112.966 E9.31804
G1 X112.730 Y112.058 E9.46928
G0 F7200.00000 X112.790 Y112.224
;TYPE:SKIN
G1 F1800.000 X127.559 Y126.993 E11.97566
G0 X127.629 Y127.063
G0 F7200.000 X127.666 Y127.666
G1 F1800.000 X112.512 Y112.512 E14.54738
G0 X112.442 Y112.442
G0 F7200.000 X112.234 Y112.800
G1 F1800.000 X127.745 Y128.311 E17.17968
G0 X127.815 Y128.381
G0 F7200.000 X127.814 Y128.945
G1 F1800.000 X111.958 Y113.089 E19.87054
G0 X111.888 Y113.019
G0 F7200.000 X111.694 Y113.391
G1 F1800.000 X127.859 Y129.556 E22.61383
G0 X127.929 Y129.626
G0 F7200.000 X127.896 Y130.159
G1 F1800.000 X111.431 Y113.694 E25.40803
G0 X111.361 Y113.624
G0 F7200.000 X111.167 Y113.996
G1 F1800.000 X127.911 Y130.739 E28.24950
G0 X127.981 Y130.809
G0 F7200.000 X127.884 Y131.278
G1 F1800.000 X110.917 Y114.311 E31.12889
G0 X110.847 Y114.241
G0 F7200.000 X110.668 Y114.628
G1 F1800.000 X127.711 Y131.671 E34.02119
G0 X127.781 Y131.741
G0 F7200.000 X127.533 Y132.058
G1 F1800.000 X110.418 Y114.944 E36.92561
G0 X110.348 Y114.874
G0 F7200.000 X110.180 Y115.271
G1 F1800.000 X127.335 Y132.426 E39.83691
G0 X127.405 Y132.496
G0 F7200.000 X127.133 Y132.790
G1 F1800.000 X109.943 Y115.600 E42.75415
G0 X109.873 Y115.530
G0 F7200.000 X109.707 Y115.930
G1 F1800.000 X126.912 Y133.135 E45.67394
G0 X126.982 Y133.205
G0 F7200.000 X126.693 Y133.481
G1 F1800.000 X109.483 Y116.271 E48.59457
G0 X109.413 Y116.201
G0 F7200.000 X109.261 Y116.615
G1 F1800.000 X126.449 Y133.802 E51.51139
G0 X126.519 Y133.872
G0 F7200.000 X126.204 Y134.124
G1 F1800.000 X109.039 Y116.958 E54.42447
G0 X108.969 Y116.888
G0 F7200.000 X108.828 Y117.313
G1 F1800.000 X125.942 Y134.428 E57.32890
G0 X126.012 Y134.498
G0 F7200.000 X125.676 Y134.727
G1 F1800.000 X108.620 Y117.671 E60.22340
G0 X108.550 Y117.601
G0 F7200.000 X108.412 Y118.029
G1 F1800.000 X125.399 Y135.015 E63.10610
G0 X125.469 Y135.085
G0 F7200.000 X125.110 Y135.292
G1 F1800.000 X108.216 Y118.398 E65.97311
G0 X108.146 Y118.328
G0 F7200.000 X108.023 Y118.771
G1 F1800.000 X124.783 Y135.531 E68.81737
G0 X124.853 Y135.601
G0 F7200.000 X124.398 Y135.712
G1 F1800.000 X107.830 Y119.143 E71.62914
G0 X107.760 Y119.073
G0 F7200.000 X107.648 Y119.527
G1 F1800.000 X124.013 Y135.893 E74.40646
G0 X124.083 Y135.963
G0 F7200.000 X123.609 Y136.054
G1 F1800.000 X107.470 Y119.915 E77.14534
G0 X107.400 Y119.845
G0 F7200.000 X107.292 Y120.303
G1 F1800.000 X123.204 Y136.215 E79.84569
G0 X123.274 Y136.285
G0 F7200.000 X122.791 Y136.368
G1 F1800.000 X107.128 Y120.705 E82.50379
G0 X107.058 Y120.635
G0 F7200.000 X106.966 Y121.109
G1 F1800.000 X122.367 Y136.509 E85.11734
G0 X122.437 Y136.579
G0 F7200.000 X121.943 Y136.651
G1 F1800.000 X106.804 Y121.512 E87.68652
G0 X106.734 Y121.442
G0 F7200.000 X106.659 Y121.932
G1 F1800.000 X121.499 Y136.772 E90.20495
G0 X121.569 Y136.842
G0 F7200.000 X121.053 Y136.892
G1 F1800.000 X106.512 Y122.352 E92.67255
G0 X106.442 Y122.282
G0 F7200.000 X106.370 Y122.774
G1 F1800.000 X120.594 Y136.999 E95.08653
G0 X120.664 Y137.069
G0 F7200.000 X120.125 Y137.095
G1 F1800.000 X106.241 Y123.211 E97.44272
G0 X106.171 Y123.141
G0 F7200.000 X106.112 Y123.648
G1 F1800.000 X119.650 Y137.186 E99.74020
G0 X119.720 Y137.256
G0 F7200.000 X119.156 Y137.258
G1 F1800.000 X105.992 Y124.094 E101.97420
G0 X105.922 Y124.024
G0 F7200.000 X105.881 Y124.549
G1 F1800.000 X118.662 Y137.330 E104.14321
G0 X118.732 Y137.400
G0 F7200.000 X118.141 Y137.375
G1 F1800.000 X105.770 Y125.003 E106.24273
G0 X105.700 Y124.933
G0 F7200.000 X105.676 Y125.475
G1 F1800.000 X117.620 Y137.419 E108.26969
G0 X117.690 Y137.489
G0 F7200.000 X117.072 Y137.436
G1 F1800.000 X105.585 Y125.949 E110.21910
G0 X105.515 Y125.879
G0 F7200.000 X105.499 Y126.429
G1 F1800.000 X116.522 Y137.452 E112.08976
G0 X116.592 Y137.522
G0 F7200.000 X115.940 Y137.436
G1 F1800.000 X105.428 Y126.924 E113.87371
G0 X105.358 Y126.854
G0 F7200.000 X105.356 Y127.418
G1 F1800.000 X115.355 Y137.417 E115.57060
G0 X115.425 Y137.487
G0 F7200.000 X114.735 Y137.363
G1 F1800.000 X105.302 Y127.929 E117.17151
G0 X105.232 Y127.859
G0 F7200.000 X105.253 Y128.446
G1 F1800.000 X114.103 Y137.296 E118.67341
G0 X114.173 Y137.366
G0 F7200.000 X113.436 Y137.195
G1 F1800.000 X105.213 Y128.972 E120.06890
G0 X105.143 Y128.902
G0 F7200.000 X105.188 Y129.512
G1 F1800.000 X112.741 Y137.066 E121.35077
G0 X112.811 Y137.136
G0 F7200.000 X112.021 Y136.911
G1 F1800.000 X105.164 Y130.054 E122.51444
G0 X105.094 Y129.984
G0 F7200.000 X105.165 Y130.621
G1 F1800.000 X111.242 Y136.697 E123.54566
G0 X111.312 Y136.767
G0 F7200.000 X110.410 Y136.432
G1 F1800.000 X105.166 Y131.188 E124.43559
G0 X105.096 Y131.118
G0 F7200.000 X105.639 Y132.226
G1 F1800.000 X109.513 Y136.100 E125.09303
G0 X109.583 Y136.170
G0 F7200.000 X108.511 Y135.664
G1 F1800.000 X106.473 Y133.626 E125.43889
G0 X106.403 Y133.556
G0 F7200.000 X127.440 Y126.309
G1 F1800.000 X113.079 Y111.947 E127.87612
G0 X113.009 Y111.877
G0 F7200.000 X113.369 Y111.672
G1 F1800.000 X127.282 Y125.584 E130.23715
G0 X127.352 Y125.654
G0 F7200.000 X127.108 Y124.845
G1 F1800.000 X113.659 Y111.396 E132.51952
G0 X113.589 Y111.326
G0 F7200.000 X114.038 Y111.210
G1 F1800.000 X126.889 Y124.061 E134.70041
G0 X126.959 Y124.131
G0 F7200.000 X126.633 Y123.239
G1 F1800.000 X114.450 Y111.056 E136.76793
G0 X114.380 Y110.986
G0 F7200.000 X114.884 Y110.924
G1 F1800.000 X126.338 Y122.378 E138.71174
G0 X126.408 Y122.448
G0 F7200.000 X125.980 Y121.455
G1 F1800.000 X115.358 Y110.833 E140.51435
G0 X115.288 Y110.763
G0 F7200.000 X115.877 Y110.785
G1 F1800.000 X125.536 Y120.445 E142.15362
G0 X125.606 Y120.515
G0 F7200.000 X124.987 Y119.330
G1 F1800.000 X116.449 Y110.792 E143.60257
G0 X116.379 Y110.722
G0 F7200.000 X117.091 Y110.869
G1 F1800.000 X124.278 Y118.055 E144.82216
G0 X124.348 Y118.125
G0 F7200.000 X123.215 Y116.427
G1 F1800.000 X117.850 Y111.062 E145.73263
G0 X117.780 Y110.992
G0 F7200.000 X117.700 Y111.267
G10
G0 X118.529 Y111.210
G0 X118.550 Y111.176
G0 X118.550 Y109.369
G0 X118.550 Y104.608
G0 X118.550 Y102.948
G0 X118.550 Y102.908
G0 X125.176 Y102.878
G0 X125.246 Y102.948
;TYPE:WALL-OUTER
G11
G1 F1800.000 X98.147 Y102.948 E148.98451
G1 X98.147 Y93.348 E150.13651
G1 X98.247 Y93.348 E150.14851
G1 X98.247 Y95.848 E150.44851
G1 X100.647 Y95.848 E150.73651
G1 X100.647 Y93.348 E151.03651
G1 X122.746 Y93.348 E153.68839
G1 X122.746 Y95.848 E153.98839
G1 X125.146 Y95.848 E154.27639
G1 X125.146 Y93.348 E154.57639
G1 X125.246 Y93.348 E154.58839
G1 X125.246 Y102.948 E155.74039
G0 F7200.00000 X124.848 Y102.787
;TYPE:SKIN
G1 F1800.000 X115.569 Y93.507 E157.31517
G0 X115.499 Y93.437
G0 F7200.000 X115.003 Y93.507
G1 F1800.000 X124.283 Y102.787 E158.89004
G0 X124.353 Y102.857
G0 F7200.000 X123.717 Y102.787
G1 F1800.000 X114.438 Y93.507 E160.46483
G0 X114.368 Y93.437
G0 F7200.000 X113.872 Y93.507
G1 F1800.000 X123.151 Y102.787 E162.03961
G0 X123.221 Y102.857
G0 F7200.000 X122.586 Y102.787
G1 F1800.000 X113.306 Y93.507 E163.61448
G0 X113.236 Y93.437
G0 F7200.000 X112.741 Y93.507
G1 F1800.000 X122.020 Y102.787 E165.18926
G0 X122.090 Y102.857
G0 F7200.000 X121.454 Y102.787
G1 F1800.000 X112.175 Y93.507 E166.76404
G0 X112.105 Y93.437
G0 F7200.000 X111.609 Y93.507
G1 F1800.000 X120.889 Y102.787 E168.33891
G0 X120.959 Y102.857
G0 F7200.000 X120.323 Y102.787
G1 F1800.000 X111.044 Y93.507 E169.91370
G0 X110.974 Y93.437
G0 F7200.000 X110.478 Y93.507
G1 F1800.000 X119.757 Y102.787 E171.48848
G0 X119.827 Y102.857
G0 F7200.000 X119.192 Y102.787
G1 F1800.000 X109.912 Y93.507 E173.06335
G0 X109.842 Y93.437
G0 F7200.000 X109.346 Y93.507
G1 F1800.000 X118.626 Y102.787 E174.63822
G0 X118.696 Y102.857
G0 F7200.000 X118.060 Y102.787
G1 F1800.000 X108.781 Y93.507 E176.21300
G0 X108.711 Y93.437
G0 F7200.000 X108.215 Y93.507
G1 F1800.000 X117.494 Y102.787 E177.78778
G0 X117.564 Y102.857
G0 F7200.000 X116.929 Y102.787
G1 F1800.000 X107.649 Y93.507 E179.36265
G0 X107.579 Y93.437
G0 F7200.000 X107.084 Y93.507
G1 F1800.000 X116.363 Y102.787 E180.93743
G0 X116.433 Y102.857
G0 F7200.000 X115.797 Y102.787
G1 F1800.000 X106.518 Y93.507 E182.51222
G0 X106.448 Y93.437
G0 F7200.000 X105.952 Y93.507
G1 F1800.000 X115.232 Y102.787 E184.08709
G0 X115.302 Y102.857
G0 F7200.000 X114.666 Y102.787
G1 F1800.000 X105.387 Y93.507 E185.66187
G0 X105.317 Y93.437
G0 F7200.000 X104.821 Y93.507
G1 F1800.000 X114.100 Y102.787 E187.23665
G0 X114.170 Y102.857
G0 F7200.000 X113.535 Y102.787
G1 F1800.000 X104.255 Y93.507 E188.81152
G0 X104.185 Y93.437
G0 F7200.000 X103.690 Y93.507
G1 F1800.000 X112.969 Y102.787 E190.38630
G0 X113.039 Y102.857
G0 F7200.000 X112.403 Y102.787
G1 F1800.000 X103.124 Y93.507 E191.96109
G0 X103.054 Y93.437
G0 F7200.000 X102.558 Y93.507
G1 F1800.000 X111.838 Y102.787 E193.53596
G0 X111.908 Y102.857
G0 F7200.000 X111.272 Y102.787
G1 F1800.000 X101.993 Y93.507 E195.11074
G0 X101.923 Y93.437
G0 F7200.000 X101.427 Y93.507
G1 F1800.000 X110.706 Y102.787 E196.68552
G0 X110.776 Y102.857
G0 F7200.000 X110.141 Y102.787
G1 F1800.000 X100.861 Y93.507 E198.26039
G0 X100.791 Y93.437
G0 F7200.000 X100.806 Y94.018
G1 F1800.000 X109.575 Y102.787 E199.74854
G0 X109.645 Y102.857
G0 F7200.000 X109.009 Y102.787
G1 F1800.000 X100.806 Y94.584 E201.14063
G0 X100.736 Y94.514
G0 F7200.000 X100.806 Y95.149
G1 F1800.000 X108.444 Y102.787 E202.43685
G0 X108.514 Y102.857
G0 F7200.000 X107.878 Y102.787
G1 F1800.000 X100.806 Y95.715 E203.63700
G0 X100.736 Y95.645
G0 F7200.000 X100.533 Y96.008
G1 F1800.000 X107.312 Y102.787 E204.78744
G0 X107.382 Y102.857
G0 F7200.000 X106.746 Y102.787
G1 F1800.000 X99.967 Y96.008 E205.93787
G0 X99.897 Y95.938
G0 F7200.000 X99.402 Y96.008
G1 F1800.000 X106.181 Y102.787 E207.08831
G0 X106.251 Y102.857
G0 F7200.000 X105.615 Y102.787
G1 F1800.000 X98.836 Y96.008 E208.23874
G0 X98.766 Y95.938
G0 F7200.000 X98.306 Y96.043
G1 F1800.000 X105.049 Y102.787 E209.38315
G0 X105.119 Y102.857
G0 F7200.000 X104.484 Y102.787
G1 F1800.000 X98.306 Y96.609 E210.43159
G0 X98.236 Y96.539
G0 F7200.000 X98.306 Y97.174
G1 F1800.000 X103.918 Y102.787 E211.38407
G0 X103.988 Y102.857
G0 F7200.000 X103.352 Y102.787
G1 F1800.000 X98.306 Y97.740 E212.24049
G0 X98.236 Y97.670
G0 F7200.000 X98.306 Y98.306
G1 F1800.000 X102.787 Y102.787 E213.00094
G0 X102.857 Y102.857
G0 F7200.000 X102.221 Y102.787
G1 F1800.000 X98.306 Y98.871 E213.66542
G0 X98.236 Y98.801
G0 F7200.000 X98.306 Y99.437
G1 F1800.000 X101.655 Y102.787 E214.23385
G0 X101.725 Y102.857
G0 F7200.000 X101.090 Y102.787
G1 F1800.000 X98.306 Y100.003 E214.70631
G0 X98.236 Y99.933
G0 F7200.000 X98.306 Y100.568
G1 F1800.000 X100.524 Y102.787 E215.08280
G0 X100.594 Y102.857
G0 F7200.000 X99.958 Y102.787
G1 F1800.000 X98.306 Y101.134 E215.36324
G0 X98.236 Y101.064
G0 F7200.000 X98.306 Y101.700
G1 F1800.000 X99.393 Y102.787 E215.54771
G0 X99.463 Y102.857
G0 F7200.000 X98.827 Y102.787
G1 F1800.000 X98.306 Y102.266 E215.63613
G0 F7200.00000 X116.135 Y93.507
G1 F1800.000 X125.085 Y102.458 E217.15508
G0 X125.155 Y102.528
G0 F7200.000 X125.085 Y101.892
G1 F1800.000 X116.700 Y93.507 E218.57806
G0 X116.630 Y93.437
G0 F7200.000 X117.266 Y93.507
G1 F1800.000 X125.085 Y101.326 E219.90499
G0 X125.155 Y101.396
G0 F7200.000 X125.085 Y100.761
G1 F1800.000 X117.832 Y93.507 E221.13595
G0 X117.762 Y93.437
G0 F7200.000 X118.397 Y93.507
G1 F1800.000 X125.085 Y100.195 E222.27094
G0 X125.155 Y100.265
G0 F7200.000 X125.085 Y99.629
G1 F1800.000 X118.963 Y93.507 E223.30987
G0 X118.893 Y93.437
G0 F7200.000 X119.529 Y93.507
G1 F1800.000 X125.085 Y99.064 E224.25284
G0 X125.155 Y99.134
G0 F7200.000 X125.085 Y98.498
G1 F1800.000 X122.595 Y96.008 E224.67541
G0 X122.525 Y95.938
G0 F7200.000 X122.585 Y95.998
G1 F1800.000 X120.095 Y93.507 E225.09806
G0 X120.025 Y93.437
G0 F7200.000 X120.660 Y93.507
G1 F1800.000 X122.585 Y95.432 E225.42475
G0 X122.655 Y95.502
G0 F7200.000 X122.585 Y94.866
G1 F1800.000 X121.226 Y93.507 E225.65538
G0 X121.156 Y93.437
G0 F7200.000 X121.792 Y93.507
G1 F1800.000 X122.585 Y94.301 E225.79004
G0 X122.655 Y94.371
G0 F7200.000 X122.585 Y93.735
G1 F1800.000 X122.357 Y93.507 E225.82873
G0 F7200.00000 X122.718 Y95.876
G0 X123.161 Y96.008
G1 F1800.000 X125.085 Y97.932 E226.15524
G0 X125.155 Y98.002
G0 F7200.000 X125.085 Y97.367
G1 F1800.000 X123.726 Y96.008 E226.38587
G0 X123.656 Y95.938
G0 F7200.000 X124.292 Y96.008
G1 F1800.000 X125.085 Y96.801 E226.52045
G0 X125.155 Y96.871
G0 F7200.000 X125.085 Y96.235
G1 F1800.000 X124.858 Y96.008 E226.55897
G0 F7200.00000 X124.846 Y96.248
;LAYER:1
M106 S255.000
G10
G0 X124.846 Y96.248 Z0.500
G0 X117.947 Y102.908
G0 X117.947 Y102.948
G0 X117.682 Y104.607
G0 X116.983 Y109.004
G0 X116.724 Y110.645
G0 X116.720 Y110.684
G0 X117.947 Y111.027
G0 X117.980 Y110.933
;TYPE:WALL-OUTER
G11
G1 F1800.000 X118.556 Y111.179 E226.60908
G1 X119.510 Y111.996 E226.70956
G1 X120.431 Y112.867 E226.81097
G1 X121.321 Y113.798 E226.91401
G1 X122.158 Y114.763 E227.01620
G1 X122.941 Y115.760 E227.11762
G1 X123.691 Y116.823 E227.22170
G1 X124.376 Y117.902 E227.32394
G1 X125.007 Y119.012 E227.42609
G1 X125.587 Y120.162 E227.52913
G1 X126.101 Y121.321 E227.63056
G1 X126.562 Y122.513 E227.73280
G1 X126.963 Y123.725 E227.83493
G1 X127.305 Y124.957 E227.93721
G1 X127.585 Y126.204 E228.03946
G1 X127.802 Y127.463 E228.14166
G1 X127.959 Y128.740 E228.24459
G1 X128.052 Y130.005 E228.34607
G1 X128.083 Y131.225 E228.44370
