;FLAVOR:UltiGCode
;TIME:11142
;MATERIAL:38336
;MATERIAL2:0
;NOZZLE_DIAMETER:0.4

;Generated with Cura_SteamEngine 2.1.3
;LAYER_COUNT:328
;LAYER:0
M107
G10
G0 F7200.000000 X67.142 Y47.274 Z0.300
;TYPE:SKIRT
G11
G1 F1800.000 X67.625 Y46.650 E0.09469
G1 X68.168 Y46.077 E0.18942
G1 X68.767 Y45.562 E0.28422
G1 X69.415 Y45.111 E0.37895
G1 X70.106 Y44.727 E0.47382
G1 X70.831 Y44.415 E0.56853
G1 X71.584 Y44.178 E0.66326
G1 X72.358 Y44.019 E0.75808
G1 X73.143 Y43.938 E0.85278
G1 X73.545 Y43.928 E0.90104
G1 X148.542 Y43.928 E9.90068
G1 X149.331 Y43.968 E9.99548
G1 X150.111 Y44.087 E10.09016
G1 X150.876 Y44.285 E10.18499
G1 X151.616 Y44.559 E10.27968
G1 X152.325 Y44.907 E10.37445
G1 X152.996 Y45.325 E10.46932
G1 X153.620 Y45.808 E10.56401
G1 X154.193 Y46.351 E10.65874
G1 X154.708 Y46.950 E10.75354
G1 X155.159 Y47.598 E10.84828
G1 X155.543 Y48.289 E10.94314
G1 X155.855 Y49.014 E11.03785
G1 X156.092 Y49.767 E11.13258
G1 X156.251 Y50.541 E11.22740
G1 X156.332 Y51.326 E11.32210
G1 X156.342 Y51.728 E11.37036
G1 X156.344 Y152.977 E23.52024
G1 X156.304 Y153.766 E23.61504
G1 X156.185 Y154.546 E23.70972
G1 X155.987 Y155.311 E23.80455
G1 X155.713 Y156.051 E23.89924
G1 X155.365 Y156.760 E23.99401
G1 X154.948 Y157.431 E24.08882
G1 X154.464 Y158.055 E24.18358
G1 X153.921 Y158.628 E24.27831
G1 X153.322 Y159.143 E24.37311
G1 X152.674 Y159.594 E24.46785
G1 X151.984 Y159.978 E24.56260
G1 X151.258 Y160.290 E24.65743
G1 X150.505 Y160.527 E24.75216
G1 X149.731 Y160.686 E24.84698
G1 X148.946 Y160.767 E24.94168
G1 X148.544 Y160.777 E24.98993
G1 X73.545 Y160.777 E33.98981
G1 X72.756 Y160.737 E34.08461
G1 X71.976 Y160.618 E34.17930
G1 X71.211 Y160.420 E34.27412
G1 X70.471 Y160.146 E34.36881
G1 X69.762 Y159.798 E34.46359
G1 X69.091 Y159.380 E34.55846
G1 X68.467 Y158.897 E34.65315
G1 X67.894 Y158.354 E34.74788
G1 X67.379 Y157.755 E34.84267
G1 X66.928 Y157.107 E34.93741
G1 X66.544 Y156.416 E35.03227
G1 X66.232 Y155.691 E35.12699
G1 X65.995 Y154.938 E35.22172
G1 X65.836 Y154.164 E35.31654
G1 X65.755 Y153.379 E35.41124
G1 X65.745 Y152.977 E35.45949
G1 X65.745 Y51.728 E47.60937
G1 X65.785 Y50.939 E47.70417
G1 X65.904 Y50.159 E47.79886
G1 X66.102 Y49.394 E47.89368
G1 X66.376 Y48.654 E47.98837
G1 X66.724 Y47.945 E48.08315
G1 X67.142 Y47.274 E48.17802
G0 F7200.00000 X67.539 Y47.405
G1 F1800.000 X68.020 Y46.805 E48.27030
G1 X68.561 Y46.258 E48.36262
G1 X69.156 Y45.770 E48.45496
G1 X69.798 Y45.347 E48.54722
G1 X70.481 Y44.992 E48.63959
G1 X71.196 Y44.711 E48.73178
G1 X71.938 Y44.505 E48.82419
G1 X72.696 Y44.377 E48.91643
G1 X73.545 Y44.328 E49.01848
G1 X148.542 Y44.328 E58.01812
G1 X149.310 Y44.368 E58.11041
G1 X150.070 Y44.487 E58.20272
G1 X150.813 Y44.685 E58.29499
G1 X151.532 Y44.959 E58.38732
G1 X152.218 Y45.306 E58.47958
G1 X152.865 Y45.722 E58.57188
G1 X153.465 Y46.203 E58.66416
G1 X154.012 Y46.744 E58.75648
G1 X154.500 Y47.339 E58.84882
G1 X154.923 Y47.981 E58.94108
G1 X155.278 Y48.664 E59.03345
G1 X155.559 Y49.379 E59.12564
G1 X155.765 Y50.121 E59.21805
G1 X155.893 Y50.879 E59.31030
G1 X155.942 Y51.728 E59.41235
G1 X155.944 Y152.977 E71.56223
G1 X155.904 Y153.745 E71.65451
G1 X155.785 Y154.505 E71.74682
G1 X155.587 Y155.248 E71.83909
G1 X155.313 Y155.967 E71.93143
G1 X154.966 Y156.653 E72.02368
G1 X154.550 Y157.300 E72.11598
G1 X154.069 Y157.900 E72.20826
G1 X153.528 Y158.447 E72.30058
G1 X152.933 Y158.935 E72.39293
G1 X152.291 Y159.358 E72.48519
G1 X151.608 Y159.713 E72.57756
G1 X150.893 Y159.994 E72.66974
G1 X150.152 Y160.200 E72.76204
G1 X149.393 Y160.328 E72.85440
G1 X148.544 Y160.377 E72.95645
G1 X73.545 Y160.377 E81.95633
G1 X72.777 Y160.337 E82.04862
G1 X72.017 Y160.218 E82.14093
G1 X71.274 Y160.020 E82.23320
G1 X70.555 Y159.746 E82.32553
G1 X69.869 Y159.399 E82.41778
G1 X69.222 Y158.983 E82.51009
G1 X68.622 Y158.502 E82.60237
G1 X68.075 Y157.961 E82.69469
G1 X67.587 Y157.366 E82.78703
G1 X67.164 Y156.724 E82.87929
G1 X66.809 Y156.041 E82.97166
G1 X66.528 Y155.326 E83.06385
G1 X66.322 Y154.584 E83.15626
G1 X66.194 Y153.826 E83.24851
G1 X66.145 Y152.977 E83.35055
G1 X66.145 Y51.728 E95.50043
G1 X66.185 Y50.960 E95.59272
G1 X66.304 Y50.200 E95.68503
G1 X66.502 Y49.457 E95.77730
G1 X66.776 Y48.738 E95.86964
G1 X67.123 Y48.052 E95.96189
G1 X67.539 Y47.405 E96.05419
G0 F7200.00000 X67.937 Y47.539
G1 F1800.000 X68.416 Y46.965 E96.14390
G1 X68.953 Y46.444 E96.23369
G1 X69.543 Y45.985 E96.32339
G1 X70.179 Y45.590 E96.41323
G1 X70.853 Y45.266 E96.50297
G1 X71.558 Y45.016 E96.59273
G1 X72.286 Y44.842 E96.68255
G1 X73.028 Y44.747 E96.77232
G1 X73.545 Y44.728 E96.83440
G1 X148.542 Y44.728 E105.83404
G1 X149.289 Y44.768 E105.92381
G1 X150.027 Y44.887 E106.01352
G1 X150.749 Y45.085 E106.10335
G1 X151.445 Y45.358 E106.19307
G1 X152.108 Y45.705 E106.28287
G1 X152.731 Y46.120 E106.37270
G1 X153.305 Y46.599 E106.46241
G1 X153.826 Y47.136 E106.55219
G1 X154.285 Y47.726 E106.64189
G1 X154.680 Y48.362 E106.73174
G1 X155.004 Y49.036 E106.82148
G1 X155.254 Y49.741 E106.91124
G1 X155.428 Y50.469 E107.00106
G1 X155.523 Y51.211 E107.09083
G1 X155.542 Y51.728 E107.15291
G1 X155.544 Y152.977 E119.30279
G1 X155.504 Y153.724 E119.39256
G1 X155.385 Y154.462 E119.48226
G1 X155.187 Y155.184 E119.57210
G1 X154.914 Y155.880 E119.66181
G1 X154.567 Y156.543 E119.75161
G1 X154.152 Y157.166 E119.84144
G1 X153.673 Y157.740 E119.93115
G1 X153.136 Y158.260 E120.02085
G1 X152.546 Y158.720 E120.11063
G1 X151.910 Y159.115 E120.20047
G1 X151.236 Y159.439 E120.29021
G1 X150.531 Y159.689 E120.37997
G1 X149.803 Y159.863 E120.46979
G1 X149.061 Y159.958 E120.55956
G1 X148.544 Y159.977 E120.62164
G1 X73.545 Y159.977 E129.62152
G1 X72.798 Y159.937 E129.71129
G1 X72.060 Y159.818 E129.80099
G1 X71.338 Y159.620 E129.89083
G1 X70.642 Y159.347 E129.98055
G1 X69.979 Y159.000 E130.07035
G1 X69.356 Y158.585 E130.16017
G1 X68.782 Y158.106 E130.24989
G1 X68.261 Y157.569 E130.33967
G1 X67.802 Y156.979 E130.42937
G1 X67.407 Y156.343 E130.51922
G1 X67.083 Y155.669 E130.60895
G1 X66.833 Y154.964 E130.69872
G1 X66.659 Y154.236 E130.78854
G1 X66.564 Y153.494 E130.87830
G1 X66.545 Y152.977 E130.94039
G1 X66.545 Y51.728 E143.09027
G1 X66.585 Y50.981 E143.18003
G1 X66.704 Y50.243 E143.26974
G1 X66.902 Y49.521 E143.35958
G1 X67.175 Y48.825 E143.44929
G1 X67.522 Y48.162 E143.53909
G1 X67.937 Y47.539 E143.62892
G0 F7200.00000 X68.334 Y47.678
G1 F1800.000 X68.810 Y47.130 E143.71602
G1 X69.344 Y46.637 E143.80324
G1 X69.929 Y46.207 E143.89036
G1 X70.558 Y45.843 E143.97757
G1 X71.223 Y45.550 E144.06477
G1 X71.916 Y45.332 E144.15195
G1 X72.628 Y45.192 E144.23902
G1 X73.545 Y45.128 E144.34933
G1 X148.542 Y45.128 E153.34897
G1 X149.267 Y45.168 E153.43610
G1 X149.984 Y45.287 E153.52332
G1 X150.683 Y45.485 E153.61050
G1 X151.356 Y45.758 E153.69765
G1 X151.995 Y46.103 E153.78479
G1 X152.592 Y46.517 E153.87197
G1 X153.140 Y46.993 E153.95908
G1 X153.633 Y47.527 E154.04629
G1 X154.063 Y48.112 E154.13342
G1 X154.427 Y48.741 E154.22062
G1 X154.720 Y49.406 E154.30783
G1 X154.938 Y50.099 E154.39500
G1 X155.078 Y50.811 E154.48208
G1 X155.142 Y51.728 E154.59239
G1 X155.144 Y152.977 E166.74227
G1 X155.104 Y153.702 E166.82940
G1 X154.985 Y154.419 E166.91662
G1 X154.787 Y155.118 E167.00380
G1 X154.514 Y155.791 E167.09095
G1 X154.169 Y156.430 E167.17809
G1 X153.755 Y157.027 E167.26527
G1 X153.279 Y157.575 E167.35237
G1 X152.745 Y158.068 E167.43959
G1 X152.160 Y158.498 E167.52671
G1 X151.531 Y158.862 E167.61392
G1 X150.867 Y159.155 E167.70101
G1 X150.174 Y159.373 E167.78819
G1 X149.461 Y159.513 E167.87538
G1 X148.544 Y159.577 E167.98569
G1 X73.545 Y159.577 E176.98557
G1 X72.820 Y159.537 E177.07270
G1 X72.103 Y159.418 E177.15992
G1 X71.404 Y159.220 E177.24710
G1 X70.731 Y158.947 E177.33425
G1 X70.092 Y158.602 E177.42139
G1 X69.495 Y158.188 E177.50857
G1 X68.947 Y157.712 E177.59568
G1 X68.454 Y157.178 E177.68289
G1 X68.024 Y156.593 E177.77002
G1 X67.660 Y155.964 E177.85722
G1 X67.367 Y155.299 E177.94443
G1 X67.149 Y154.606 E178.03160
G1 X67.009 Y153.894 E178.11868
G1 X66.945 Y152.977 E178.22899
G1 X66.945 Y51.728 E190.37887
G1 X66.985 Y51.003 E190.46600
G1 X67.104 Y50.286 E190.55322
G1 X67.302 Y49.587 E190.64040
G1 X67.575 Y48.914 E190.72755
G1 X67.920 Y48.275 E190.81469
G1 X68.334 Y47.678 E190.90187
G0 F7200.00000 X68.730 Y47.822
G1 F1800.000 X69.204 Y47.301 E190.98639
G1 X69.734 Y46.837 E191.07092
G1 X70.313 Y46.437 E191.15537
G1 X70.934 Y46.105 E191.23987
G1 X71.588 Y45.845 E191.32433
G1 X72.268 Y45.661 E191.40886
G1 X72.964 Y45.555 E191.49334
G1 X73.545 Y45.528 E191.56314
G1 X148.542 Y45.528 E200.56278
G1 X149.245 Y45.568 E200.64728
G1 X149.939 Y45.687 E200.73177
G1 X150.614 Y45.885 E200.81618
G1 X151.263 Y46.157 E200.90063
G1 X151.877 Y46.502 E200.98514
G1 X152.448 Y46.913 E201.06957
G1 X152.969 Y47.387 E201.15409
G1 X153.433 Y47.917 E201.23862
G1 X153.833 Y48.496 E201.32307
G1 X154.165 Y49.117 E201.40757
G1 X154.425 Y49.771 E201.49202
G1 X154.609 Y50.451 E201.57656
G1 X154.715 Y51.147 E201.66104
G1 X154.742 Y51.728 E201.73083
G1 X154.744 Y152.977 E213.88071
G1 X154.704 Y153.680 E213.96521
G1 X154.585 Y154.374 E214.04971
G1 X154.387 Y155.049 E214.13412
G1 X154.115 Y155.698 E214.21856
G1 X153.770 Y156.312 E214.30308
G1 X153.359 Y156.883 E214.38750
G1 X152.885 Y157.404 E214.47202
G1 X152.355 Y157.868 E214.55655
G1 X151.776 Y158.268 E214.64100
G1 X151.155 Y158.600 E214.72550
G1 X150.501 Y158.860 E214.80996
G1 X149.821 Y159.044 E214.89449
G1 X149.125 Y159.150 E214.97897
G1 X148.544 Y159.177 E215.04877
G1 X73.545 Y159.177 E224.04865
G1 X72.842 Y159.137 E224.13315
G1 X72.148 Y159.018 E224.21764
G1 X71.473 Y158.820 E224.30205
G1 X70.824 Y158.548 E224.38650
G1 X70.210 Y158.203 E224.47101
G1 X69.639 Y157.792 E224.55544
G1 X69.118 Y157.318 E224.63996
G1 X68.654 Y156.788 E224.72449
G1 X68.254 Y156.209 E224.80894
G1 X67.922 Y155.588 E224.89344
G1 X67.662 Y154.934 E224.97789
G1 X67.478 Y154.254 E225.06243
G1 X67.372 Y153.558 E225.14691
G1 X67.345 Y152.977 E225.21671
G1 X67.345 Y51.728 E237.36659
G1 X67.385 Y51.025 E237.45108
G1 X67.504 Y50.331 E237.53558
G1 X67.702 Y49.656 E237.61999
G1 X67.974 Y49.007 E237.70443
G1 X68.319 Y48.393 E237.78895
G1 X68.730 Y47.822 E237.87337
G0 F7200.00000 X69.127 Y47.970
G1 F1800.000 X69.598 Y47.479 E237.95502
G1 X70.123 Y47.045 E238.03676
G1 X70.695 Y46.676 E238.11844
G1 X71.307 Y46.377 E238.20018
G1 X71.949 Y46.152 E238.28181
G1 X72.614 Y46.003 E238.36359
G1 X73.545 Y45.928 E238.47567
G1 X148.542 Y45.928 E247.47531
G1 X149.222 Y45.968 E247.55705
G1 X149.892 Y46.087 E247.63871
G1 X150.544 Y46.284 E247.72044
G1 X151.168 Y46.556 E247.80213
G1 X151.756 Y46.900 E247.88388
G1 X152.300 Y47.310 E247.96562
G1 X152.791 Y47.781 E248.04727
G1 X153.225 Y48.306 E248.12901
G1 X153.594 Y48.878 E248.21069
G1 X153.893 Y49.490 E248.29243
G1 X154.118 Y50.132 E248.37406
G1 X154.267 Y50.797 E248.45584
G1 X154.342 Y51.728 E248.56792
G1 X154.344 Y152.977 E260.71780
G1 X154.304 Y153.657 E260.79954
G1 X154.185 Y154.327 E260.88120
G1 X153.988 Y154.979 E260.96293
G1 X153.716 Y155.603 E261.04462
G1 X153.372 Y156.191 E261.12637
G1 X152.962 Y156.734 E261.20802
G1 X152.492 Y157.226 E261.28967
G1 X151.966 Y157.660 E261.37150
G1 X151.394 Y158.028 E261.45312
G1 X150.782 Y158.328 E261.53490
G1 X150.140 Y158.553 E261.61654
G1 X149.475 Y158.702 E261.69832
G1 X148.544 Y158.777 E261.81040
G1 X73.545 Y158.777 E270.81028
G1 X72.865 Y158.737 E270.89202
G1 X72.195 Y158.618 E270.97368
G1 X71.543 Y158.421 E271.05541
G1 X70.919 Y158.149 E271.13710
G1 X70.331 Y157.805 E271.21884
G1 X69.787 Y157.395 E271.30059
G1 X69.296 Y156.924 E271.38224
G1 X68.862 Y156.399 E271.46397
G1 X68.493 Y155.827 E271.54566
G1 X68.194 Y155.215 E271.62739
G1 X67.969 Y154.573 E271.70903
G1 X67.820 Y153.908 E271.79081
G1 X67.745 Y152.977 E271.90289
G1 X67.745 Y51.728 E284.05277
G1 X67.785 Y51.048 E284.13451
G1 X67.904 Y50.378 E284.21617
G1 X68.101 Y49.726 E284.29790
G1 X68.373 Y49.102 E284.37959
G1 X68.717 Y48.514 E284.46133
G1 X69.127 Y47.970 E284.54308
G0 F7200.00000 X69.523 Y48.125
G1 F1800.000 X69.990 Y47.663 E284.62191
G1 X70.510 Y47.262 E284.70071
G1 X71.074 Y46.926 E284.77949
G1 X71.676 Y46.662 E284.85837
G1 X72.305 Y46.472 E284.93722
G1 X72.952 Y46.361 E285.01599
G1 X73.545 Y46.328 E285.08726
G1 X148.542 Y46.328 E294.08690
G1 X149.198 Y46.368 E294.16577
G1 X149.844 Y46.487 E294.24459
G1 X150.471 Y46.684 E294.32346
G1 X151.069 Y46.956 E294.40229
G1 X151.630 Y47.298 E294.48114
G1 X152.145 Y47.706 E294.55998
G1 X152.607 Y48.173 E294.63881
G1 X153.008 Y48.693 E294.71761
G1 X153.344 Y49.257 E294.79639
G1 X153.608 Y49.859 E294.87527
G1 X153.798 Y50.488 E294.95412
G1 X153.909 Y51.135 E295.03289
G1 X153.942 Y51.728 E295.10416
G1 X153.944 Y152.977 E307.25404
G1 X153.904 Y153.633 E307.33291
G1 X153.785 Y154.279 E307.41173
G1 X153.588 Y154.905 E307.49048
G1 X153.316 Y155.504 E307.56943
G1 X152.974 Y156.065 E307.64827
G1 X152.567 Y156.580 E307.72704
G1 X152.099 Y157.041 E307.80587
G1 X151.579 Y157.443 E307.88474
G1 X151.015 Y157.779 E307.96352
G1 X150.413 Y158.043 E308.04240
G1 X149.784 Y158.233 E308.12125
G1 X149.137 Y158.344 E308.20003
G1 X148.544 Y158.377 E308.27130
G1 X73.545 Y158.377 E317.27118
G1 X72.889 Y158.337 E317.35004
G1 X72.243 Y158.218 E317.42887
G1 X71.616 Y158.021 E317.50773
G1 X71.018 Y157.749 E317.58657
G1 X70.457 Y157.407 E317.66541
G1 X69.942 Y156.999 E317.74426
G1 X69.480 Y156.532 E317.82308
G1 X69.079 Y156.012 E317.90188
G1 X68.743 Y155.448 E317.98066
G1 X68.479 Y154.846 E318.05955
G1 X68.289 Y154.217 E318.13839
G1 X68.178 Y153.570 E318.21717
G1 X68.145 Y152.977 E318.28844
G1 X68.145 Y51.728 E330.43832
G1 X68.185 Y51.072 E330.51718
G1 X68.304 Y50.426 E330.59601
G1 X68.501 Y49.799 E330.67487
G1 X68.773 Y49.201 E330.75371
G1 X69.115 Y48.640 E330.83255
G1 X69.523 Y48.125 E330.91140
G0 F7200.00000 X69.918 Y48.287
G1 F1800.000 X70.381 Y47.857 E330.98722
G1 X70.895 Y47.488 E331.06315
G1 X71.451 Y47.188 E331.13896
G1 X72.040 Y46.960 E331.21475
G1 X72.654 Y46.808 E331.29066
G1 X73.545 Y46.728 E331.39801
G1 X148.542 Y46.728 E340.39765
G1 X149.173 Y46.768 E340.47352
G1 X149.794 Y46.887 E340.54940
G1 X150.394 Y47.084 E340.62518
G1 X150.966 Y47.355 E340.70113
G1 X151.498 Y47.695 E340.77690
G1 X151.983 Y48.101 E340.85280
G1 X152.413 Y48.564 E340.92862
G1 X152.782 Y49.078 E341.00455
G1 X153.082 Y49.634 E341.08036
G1 X153.310 Y50.223 E341.15615
G1 X153.462 Y50.837 E341.23206
G1 X153.542 Y51.728 E341.33941
G1 X153.544 Y152.977 E353.48929
G1 X153.504 Y153.608 E353.56516
G1 X153.385 Y154.229 E353.64103
G1 X153.188 Y154.829 E353.71682
G1 X152.917 Y155.401 E353.79277
G1 X152.577 Y155.933 E353.86853
G1 X152.171 Y156.418 E353.94443
G1 X151.708 Y156.848 E354.02026
G1 X151.195 Y157.217 E354.09609
G1 X150.638 Y157.517 E354.17201
G1 X150.049 Y157.745 E354.24780
G1 X149.435 Y157.897 E354.32370
G1 X148.544 Y157.977 E354.43105
G1 X73.545 Y157.977 E363.43093
G1 X72.914 Y157.937 E363.50681
G1 X72.293 Y157.818 E363.58268
G1 X71.693 Y157.621 E363.65846
G1 X71.121 Y157.350 E363.73442
G1 X70.589 Y157.010 E363.81018
G1 X70.104 Y156.604 E363.88608
G1 X69.674 Y156.141 E363.96191
G1 X69.305 Y155.627 E364.03784
G1 X69.005 Y155.071 E364.11365
G1 X68.777 Y154.482 E364.18944
G1 X68.625 Y153.868 E364.26534
G1 X68.545 Y152.977 E364.37269
G1 X68.545 Y51.728 E376.52257
G1 X68.585 Y51.097 E376.59845
G1 X68.704 Y50.476 E376.67432
G1 X68.901 Y49.876 E376.75010
G1 X69.172 Y49.304 E376.82606
G1 X69.512 Y48.772 E376.90182
G1 X69.918 Y48.287 E376.97772
G0 F7200.00000 X70.312 Y48.456
G1 F1800.000 X70.770 Y48.059 E377.05046
G1 X71.277 Y47.726 E377.12324
G1 X71.823 Y47.462 E377.19602
G1 X72.399 Y47.273 E377.26877
G1 X72.995 Y47.161 E377.34154
G1 X73.545 Y47.128 E377.40766
G1 X148.542 Y47.128 E386.40730
