;FLAVOR:RepRap
;TIME:4292
M104 S220.000000
M109 S220.000000
; -- START GCODE --
G21                     ;set units to millimetres
G90                     ;set to absolute positioning
M106 S0                 ;set fan speed to zero (turned off)
G28 X0 Y0               ;move to the X/Y origin (Home)
G28 Z0                  ;move to the Z origin (Home)
G1 Z15.0 F1200          ;move Z to position 15.0 mm
G92 E0                  ;zero the extruded length
G1 E20 F200             ;extrude 20mm of feed stock
G92 E0                  ;zero the extruded length again
G1 F7200                ;set feedrate to 120 mm/sec
; -- end of START GCODE --
;Generated with Cura_SteamEngine 2.1.3
;LAYER_COUNT:233
;LAYER:0
M107
G1 F1800.000000 E-6.50000
G1 Z20.075
G0 F7200.000 X56.586 Y83.574 Z0.275
;TYPE:SKIRT
G1 Z0.200
G1 F1800.000 E0.00000
G1 F1200.00000 X57.277 Y83.192 E0.02626
G1 X57.730 Y82.988 E0.04279
G1 X58.092 Y82.839 E0.05581
G1 X58.837 Y82.576 E0.08208
G1 X59.604 Y82.389 E0.10834
G1 X60.025 Y82.321 E0.12252
G1 X60.413 Y82.269 E0.13554
G1 X61.449 Y82.200 E0.17008
G1 X88.449 Y82.200 E1.06810
G1 X89.485 Y82.269 E1.10264
G1 X89.873 Y82.321 E1.11566
G1 X90.649 Y82.466 E1.14191
G1 X91.407 Y82.688 E1.16818
G1 X91.806 Y82.839 E1.18237
G1 X92.168 Y82.988 E1.19539
G1 X92.882 Y83.325 E1.22165
G1 X93.558 Y83.733 E1.24791
G1 X93.952 Y84.016 E1.26405
G1 X94.263 Y84.255 E1.27709
G1 X94.864 Y84.768 E1.30338
G1 X95.410 Y85.338 E1.32963
G1 X95.697 Y85.690 E1.34473
G1 X95.935 Y86.000 E1.35773
G1 X96.383 Y86.650 E1.38399
G1 X96.764 Y87.342 E1.41026
G1 X96.954 Y87.764 E1.42566
G1 X97.104 Y88.126 E1.43869
G1 X97.369 Y88.870 E1.46496
G1 X97.557 Y89.637 E1.49122
G1 X97.631 Y90.095 E1.50665
G1 X97.682 Y90.483 E1.51967
G1 X97.749 Y91.501 E1.55360
G1 X97.749 Y95.312 E1.68036
G1 X126.278 Y95.313 E2.62923
G1 X126.551 Y95.227 E2.63875
G1 X127.325 Y95.068 E2.66504
G1 X128.110 Y94.987 E2.69128
G1 X128.512 Y94.977 E2.70466
G1 X131.713 Y94.977 E2.81112
G1 X136.289 Y92.958 E2.97748
G1 X137.027 Y92.676 E3.00376
G1 X137.790 Y92.470 E3.03004
G1 X138.569 Y92.343 E3.05629
G1 X139.438 Y92.294 E3.08524
G1 X145.116 Y92.294 E3.27409
G1 X145.564 Y92.101 E3.29032
G1 X146.317 Y91.864 E3.31657
G1 X147.091 Y91.705 E3.34285
G1 X147.876 Y91.624 E3.36910
G1 X148.278 Y91.614 E3.38248
G1 X149.014 Y91.614 E3.40696
G1 X149.803 Y91.654 E3.43323
G1 X150.583 Y91.773 E3.45948
G1 X150.656 Y91.792 E3.46198
G1 X155.214 Y91.792 E3.61358
G1 X156.003 Y91.832 E3.63986
G1 X156.783 Y91.951 E3.66610
G1 X157.548 Y92.149 E3.69239
G1 X158.288 Y92.423 E3.71863
G1 X158.997 Y92.771 E3.74490
G1 X159.668 Y93.189 E3.77119
G1 X160.292 Y93.672 E3.79744
G1 X160.865 Y94.215 E3.82369
G1 X161.380 Y94.814 E3.84997
G1 X161.831 Y95.462 E3.87623
G1 X162.215 Y96.153 E3.90252
G1 X162.527 Y96.878 E3.92877
G1 X162.764 Y97.631 E3.95503
G1 X162.923 Y98.405 E3.98131
G1 X162.980 Y98.962 E3.99993
G1 X163.001 Y99.062 E4.00333
G1 X163.082 Y99.847 E4.02958
G1 X163.092 Y100.249 E4.04295
G1 X163.092 Y100.985 E4.06743
G1 X163.052 Y101.774 E4.09371
G1 X162.933 Y102.554 E4.11995
G1 X162.856 Y102.852 E4.13019
G1 X162.856 Y105.445 E4.21643
G1 X162.857 Y105.448 E4.21654
G1 X163.016 Y106.222 E4.24282
G1 X163.097 Y107.007 E4.26907
G1 X163.107 Y107.409 E4.28244
G1 X163.107 Y108.751 E4.32708
G1 X163.067 Y109.540 E4.35335
G1 X162.948 Y110.320 E4.37960
G1 X162.750 Y111.085 E4.40588
G1 X162.476 Y111.825 E4.43212
G1 X162.128 Y112.534 E4.45839
G1 X161.710 Y113.205 E4.48469
G1 X161.227 Y113.829 E4.51093
G1 X160.684 Y114.402 E4.53719
G1 X160.085 Y114.917 E4.56346
G1 X159.437 Y115.368 E4.58972
G1 X158.746 Y115.752 E4.61601
G1 X158.021 Y116.064 E4.64226
G1 X157.268 Y116.301 E4.66852
G1 X156.494 Y116.460 E4.69480
G1 X155.709 Y116.541 E4.72105
G1 X155.307 Y116.551 E4.73442
G1 X150.143 Y116.551 E4.90618
G1 X149.416 Y116.626 E4.93049
G1 X149.014 Y116.636 E4.94386
G1 X148.278 Y116.636 E4.96834
G1 X147.489 Y116.596 E4.99462
G1 X146.709 Y116.477 E5.02086
G1 X145.944 Y116.279 E5.04714
G1 X145.528 Y116.125 E5.06190
G1 X139.557 Y116.125 E5.26049
G1 X138.768 Y116.085 E5.28677
G1 X137.988 Y115.966 E5.31301
G1 X137.223 Y115.768 E5.33930
G1 X136.483 Y115.494 E5.36554
G1 X136.049 Y115.292 E5.38146
G1 X131.944 Y113.225 E5.53433
G1 X128.512 Y113.225 E5.64848
G1 X127.723 Y113.185 E5.67475
G1 X126.943 Y113.066 E5.70099
G1 X126.259 Y112.889 E5.72449
G1 X97.747 Y112.888 E6.67281
G1 X97.746 Y118.526 E6.86033
G1 X97.679 Y119.548 E6.89439
G1 X97.631 Y119.911 E6.90657
G1 X97.488 Y120.687 E6.93282
G1 X97.267 Y121.445 E6.95908
G1 X97.104 Y121.874 E6.97434
G1 X96.954 Y122.236 E6.98737
G1 X96.615 Y122.949 E7.01363
G1 X96.206 Y123.625 E7.03991
G1 X95.935 Y124.000 E7.05530
G1 X95.697 Y124.310 E7.06830
G1 X95.185 Y124.911 E7.09456
G1 X94.615 Y125.458 E7.12083
G1 X94.263 Y125.745 E7.13594
G1 X93.952 Y125.984 E7.14898
G1 X93.302 Y126.433 E7.17526
G1 X92.610 Y126.813 E7.20152
G1 X92.168 Y127.012 E7.21764
G1 X91.806 Y127.161 E7.23066
G1 X91.061 Y127.424 E7.25694
G1 X90.294 Y127.611 E7.28320
G1 X89.873 Y127.679 E7.29738
G1 X89.485 Y127.731 E7.31040
G1 X88.448 Y127.800 E7.34497
G1 X61.423 Y127.797 E8.24382
G1 X60.381 Y127.727 E8.27856
G1 X60.018 Y127.678 E8.29074
G1 X59.241 Y127.533 E8.31703
G1 X58.484 Y127.310 E8.34328
G1 X58.092 Y127.161 E8.35723
G1 X57.730 Y127.012 E8.37025
G1 X57.016 Y126.675 E8.39651
G1 X56.340 Y126.267 E8.42277
G1 X55.937 Y125.976 E8.43930
G1 X55.627 Y125.737 E8.45232
G1 X55.026 Y125.224 E8.47860
G1 X54.481 Y124.653 E8.50485
G1 X54.212 Y124.322 E8.51904
G1 X53.973 Y124.012 E8.53206
G1 X53.523 Y123.363 E8.55833
G1 X53.141 Y122.672 E8.58459
G1 X52.944 Y122.236 E8.60050
G1 X52.794 Y121.874 E8.61353
G1 X52.529 Y121.130 E8.63980
G1 X52.341 Y120.363 E8.66607
G1 X52.267 Y119.905 E8.68150
G1 X52.216 Y119.517 E8.69451
G1 X52.149 Y118.500 E8.72841
G1 X52.149 Y91.500 E9.62644
G1 X52.216 Y90.483 E9.66034
G1 X52.267 Y90.095 E9.67335
G1 X52.409 Y89.319 E9.69959
G1 X52.629 Y88.560 E9.72587
G1 X52.794 Y88.126 E9.74132
G1 X52.944 Y87.764 E9.75435
G1 X53.283 Y87.051 E9.78061
G1 X53.692 Y86.375 E9.80689
G1 X53.973 Y85.988 E9.82279
G1 X54.212 Y85.678 E9.83581
G1 X54.725 Y85.077 E9.86209
G1 X55.296 Y84.532 E9.88835
G1 X55.627 Y84.263 E9.90253
G1 X55.937 Y84.024 E9.91555
G1 X56.586 Y83.574 E9.94182
G0 F7200.00000 X56.813 Y83.903
G1 F1200.000 X57.488 Y83.534 E9.96741
G1 X57.882 Y83.358 E9.98176
G1 X58.244 Y83.209 E9.99478
G1 X58.970 Y82.954 E10.02037
G1 X60.078 Y82.718 E10.05805
G1 X60.466 Y82.666 E10.07107
G1 X61.449 Y82.600 E10.10384
G1 X88.449 Y82.600 E11.00186
G1 X89.432 Y82.666 E11.03463
G1 X89.820 Y82.718 E11.04765
G1 X90.576 Y82.859 E11.07323
G1 X91.654 Y83.209 E11.11093
G1 X92.016 Y83.358 E11.12395
G1 X92.711 Y83.687 E11.14952
G1 X93.368 Y84.087 E11.17511
G1 X93.708 Y84.333 E11.18906
G1 X94.019 Y84.572 E11.20211
G1 X94.604 Y85.072 E11.22770
G1 X95.133 Y85.630 E11.25328
G1 X95.380 Y85.934 E11.26631
G1 X95.618 Y86.244 E11.27930
G1 X96.054 Y86.877 E11.30487
G1 X96.422 Y87.553 E11.33047
G1 X96.584 Y87.917 E11.34372
G1 X96.734 Y88.279 E11.35675
G1 X96.991 Y89.004 E11.38234
G1 X97.172 Y89.752 E11.40793
G1 X97.235 Y90.148 E11.42127
G1 X97.286 Y90.536 E11.43429
G1 X97.349 Y91.501 E11.46645
G1 X97.349 Y95.712 E11.60651
G1 X126.332 Y95.713 E12.57049
G1 X126.905 Y95.554 E12.59027
G1 X127.663 Y95.426 E12.61583
G1 X128.512 Y95.377 E12.64412
G1 X131.798 Y95.377 E12.75341
G1 X136.451 Y93.324 E12.92257
G1 X137.170 Y93.050 E12.94816
G1 X137.913 Y92.853 E12.97372
G1 X138.673 Y92.734 E12.99931
G1 X139.438 Y92.694 E13.02479
G1 X145.183 Y92.694 E13.21587
G1 X145.214 Y92.678 E13.21703
G1 X145.929 Y92.397 E13.24258
G1 X146.671 Y92.191 E13.26819
G1 X147.429 Y92.063 E13.29376
G1 X148.278 Y92.014 E13.32204
G1 X149.014 Y92.014 E13.34652
G1 X149.782 Y92.054 E13.37210
G1 X150.542 Y92.173 E13.39769
G1 X150.613 Y92.192 E13.40013
G1 X155.214 Y92.192 E13.55316
G1 X155.982 Y92.232 E13.57874
G1 X156.742 Y92.351 E13.60433
G1 X157.485 Y92.549 E13.62990
G1 X158.204 Y92.823 E13.65549
G1 X158.890 Y93.170 E13.68106
G1 X159.537 Y93.586 E13.70665
G1 X160.137 Y94.067 E13.73222
G1 X160.684 Y94.608 E13.75781
G1 X161.172 Y95.203 E13.78341
G1 X161.595 Y95.845 E13.80898
G1 X161.950 Y96.528 E13.83458
G1 X162.231 Y97.243 E13.86013
G1 X162.437 Y97.985 E13.88574
G1 X162.565 Y98.743 E13.91131
G1 X162.582 Y99.039 E13.92117
G1 X162.643 Y99.400 E13.93335
G1 X162.692 Y100.249 E13.96163
G1 X162.692 Y100.985 E13.98611
G1 X162.652 Y101.753 E14.01169
G1 X162.533 Y102.513 E14.03728
G1 X162.456 Y102.802 E14.04723
G1 X162.456 Y105.535 E14.13813
G1 X162.530 Y105.802 E14.14734
G1 X162.658 Y106.560 E14.17291
G1 X162.707 Y107.409 E14.20119
G1 X162.707 Y108.751 E14.24583
G1 X162.667 Y109.519 E14.27141
G1 X162.548 Y110.279 E14.29699
G1 X162.350 Y111.022 E14.32257
G1 X162.076 Y111.741 E14.34816
G1 X161.729 Y112.427 E14.37373
G1 X161.313 Y113.074 E14.39931
G1 X160.832 Y113.674 E14.42489
G1 X160.291 Y114.221 E14.45048
G1 X159.696 Y114.709 E14.47607
G1 X159.054 Y115.132 E14.50164
G1 X158.371 Y115.487 E14.52725
G1 X157.656 Y115.768 E14.55280
G1 X156.914 Y115.974 E14.57841
G1 X156.156 Y116.102 E14.60398
G1 X155.307 Y116.151 E14.63226
G1 X150.076 Y116.151 E14.80625
G1 X149.863 Y116.187 E14.81343
G1 X149.014 Y116.236 E14.84172
G1 X148.278 Y116.236 E14.86620
G1 X147.510 Y116.196 E14.89177
G1 X146.750 Y116.077 E14.91736
G1 X146.007 Y115.879 E14.94293
G1 X145.603 Y115.725 E14.95731
G1 X139.557 Y115.725 E15.15841
G1 X138.789 Y115.685 E15.18398
G1 X138.029 Y115.566 E15.20957
G1 X137.286 Y115.368 E15.23514
G1 X136.229 Y114.934 E15.27315
G1 X132.041 Y112.825 E15.42911
G1 X128.512 Y112.825 E15.54648
G1 X127.744 Y112.785 E15.57206
G1 X126.984 Y112.666 E15.59765
G1 X126.320 Y112.489 E15.62050
G1 X97.347 Y112.488 E16.58415
G1 X97.346 Y118.526 E16.78497
G1 X97.282 Y119.495 E16.81727
G1 X97.234 Y119.858 E16.82945
G1 X97.094 Y120.614 E16.85502
G1 X96.876 Y121.352 E16.88062
G1 X96.734 Y121.721 E16.89377
G1 X96.584 Y122.083 E16.90680
G1 X96.253 Y122.777 E16.93237
G1 X95.852 Y123.433 E16.95795
G1 X95.618 Y123.756 E16.97121
G1 X95.380 Y124.066 E16.98421
G1 X94.880 Y124.651 E17.00981
G1 X94.323 Y125.181 E17.03538
G1 X94.019 Y125.428 E17.04841
G1 X93.708 Y125.667 E17.06145
G1 X93.075 Y126.103 E17.08702
G1 X92.399 Y126.471 E17.11262
G1 X92.016 Y126.642 E17.12657
G1 X91.654 Y126.791 E17.13959
G1 X90.928 Y127.046 E17.16518
G1 X89.820 Y127.282 E17.20286
G1 X89.432 Y127.334 E17.21588
G1 X88.448 Y127.400 E17.24868
G1 X61.423 Y127.397 E18.14754
G1 X60.434 Y127.330 E18.18051
G1 X60.071 Y127.281 E18.19269
G1 X59.315 Y127.139 E18.21827
G1 X58.244 Y126.791 E18.25573
G1 X57.882 Y126.642 E18.26875
G1 X57.187 Y126.313 E18.29432
G1 X56.530 Y125.913 E18.31991
G1 X56.181 Y125.659 E18.33426
G1 X55.871 Y125.420 E18.34728
G1 X55.287 Y124.920 E18.37285
G1 X54.529 Y124.078 E18.41053
G1 X54.290 Y123.768 E18.42355
G1 X53.852 Y123.136 E18.44913
G1 X53.483 Y122.461 E18.47471
G1 X53.314 Y122.083 E18.48849
G1 X53.164 Y121.721 E18.50152
G1 X52.907 Y120.996 E18.52710
G1 X52.726 Y120.248 E18.55270
G1 X52.663 Y119.852 E18.56604
G1 X52.612 Y119.464 E18.57905
G1 X52.549 Y118.500 E18.61118
G1 X52.549 Y91.500 E19.50921
G1 X52.612 Y90.536 E19.54134
G1 X52.663 Y90.148 E19.55435
G1 X52.803 Y89.391 E19.57996
G1 X53.020 Y88.653 E19.60554
G1 X53.164 Y88.279 E19.61887
G1 X53.314 Y87.917 E19.63191
G1 X53.645 Y87.223 E19.65748
G1 X54.046 Y86.567 E19.68305
G1 X54.290 Y86.232 E19.69684
G1 X54.529 Y85.922 E19.70986
G1 X55.029 Y85.338 E19.73543
G1 X55.871 Y84.580 E19.77311
G1 X56.181 Y84.341 E19.78613
G1 X56.813 Y83.903 E19.81170
G0 F7200.00000 X56.425 Y84.657
G1 F1200.000 X57.041 Y84.233 E19.83657
G1 X58.035 Y83.728 E19.87366
G1 X58.397 Y83.579 E19.88668
G1 X59.103 Y83.332 E19.91155
G1 X60.131 Y83.114 E19.94651
G1 X60.519 Y83.062 E19.95953
G1 X61.449 Y83.000 E19.99053
G1 X88.449 Y83.000 E20.88855
G1 X89.379 Y83.062 E20.91955
G1 X89.767 Y83.114 E20.93257
G1 X90.502 Y83.253 E20.95745
G1 X91.501 Y83.579 E20.99240
G1 X91.863 Y83.728 E21.00542
G1 X92.539 Y84.049 E21.03031
G1 X93.464 Y84.651 E21.06702
G1 X93.775 Y84.890 E21.08007
G1 X94.343 Y85.377 E21.10495
G1 X95.062 Y86.177 E21.14073
G1 X95.300 Y86.487 E21.15372
G1 X95.724 Y87.104 E21.17862
G1 X96.215 Y88.070 E21.21467
G1 X96.365 Y88.432 E21.22770
G1 X96.614 Y89.138 E21.25260
G1 X96.838 Y90.200 E21.28870
G1 X96.889 Y90.588 E21.30171
G1 X96.949 Y91.501 E21.33215
G1 X96.948 Y96.112 E21.48551
G1 X126.390 Y96.113 E22.46475
G1 X126.525 Y96.065 E22.46952
G1 X127.253 Y95.891 E22.49441
G1 X127.995 Y95.796 E22.51929
G1 X128.512 Y95.777 E22.53650
G1 X131.882 Y95.777 E22.64859
G1 X136.612 Y93.690 E22.82054
G1 X137.312 Y93.425 E22.84544
G1 X138.036 Y93.236 E22.87032
G1 X138.776 Y93.125 E22.89521
G1 X139.438 Y93.094 E22.91725
G1 X145.291 Y93.094 E23.11192
G1 X145.586 Y92.952 E23.12281
G1 X146.291 Y92.702 E23.14769
G1 X147.019 Y92.528 E23.17259
G1 X147.761 Y92.433 E23.19747
G1 X148.278 Y92.414 E23.21468
G1 X149.014 Y92.414 E23.23916
G1 X149.761 Y92.454 E23.26404
G1 X150.499 Y92.573 E23.28890
G1 X150.568 Y92.592 E23.29128
G1 X155.214 Y92.592 E23.44581
G1 X155.961 Y92.632 E23.47069
G1 X156.699 Y92.751 E23.49555
G1 X157.421 Y92.949 E23.52045
G1 X158.117 Y93.222 E23.54532
G1 X158.780 Y93.569 E23.57021
G1 X159.403 Y93.984 E23.59510
G1 X159.977 Y94.463 E23.61997
G1 X160.498 Y95.000 E23.64485
G1 X160.957 Y95.590 E23.66972
G1 X161.352 Y96.226 E23.69462
G1 X161.676 Y96.900 E23.71949
G1 X161.926 Y97.605 E23.74437
G1 X162.100 Y98.333 E23.76927
G1 X162.195 Y99.075 E23.79415
G1 X162.197 Y99.142 E23.79638
G1 X162.273 Y99.732 E23.81616
G1 X162.292 Y100.249 E23.83337
G1 X162.292 Y100.985 E23.85785
G1 X162.252 Y101.732 E23.88273
G1 X162.133 Y102.470 E23.90759
G1 X162.056 Y102.751 E23.91728
G1 X162.056 Y105.577 E24.01128
G1 X162.193 Y106.150 E24.03087
G1 X162.288 Y106.892 E24.05575
G1 X162.307 Y107.409 E24.07296
G1 X162.307 Y108.751 E24.11759
G1 X162.267 Y109.498 E24.14247
G1 X162.148 Y110.236 E24.16734
G1 X161.950 Y110.958 E24.19224
G1 X161.677 Y111.654 E24.21710
G1 X161.330 Y112.317 E24.24199
G1 X160.915 Y112.940 E24.26689
G1 X160.436 Y113.514 E24.29176
G1 X159.899 Y114.035 E24.31664
G1 X159.309 Y114.494 E24.34150
G1 X158.673 Y114.889 E24.36641
G1 X157.999 Y115.213 E24.39128
G1 X157.294 Y115.463 E24.41616
G1 X156.566 Y115.637 E24.44105
G1 X155.824 Y115.732 E24.46593
G1 X155.307 Y115.751 E24.48314
G1 X150.046 Y115.751 E24.65812
G1 X149.531 Y115.817 E24.67539
G1 X149.014 Y115.836 E24.69260
G1 X148.278 Y115.836 E24.71708
G1 X147.531 Y115.796 E24.74196
G1 X146.793 Y115.677 E24.76682
G1 X146.071 Y115.479 E24.79172
G1 X145.678 Y115.325 E24.80576
G1 X139.557 Y115.325 E25.00935
G1 X138.810 Y115.285 E25.03423
G1 X138.072 Y115.166 E25.05909
G1 X137.350 Y114.968 E25.08399
G1 X136.409 Y114.577 E25.11788
G1 X132.157 Y112.436 E25.27622
G1 X132.091 Y112.425 E25.27845
G1 X128.512 Y112.425 E25.39748
G1 X127.765 Y112.385 E25.42237
G1 X127.027 Y112.266 E25.44723
G1 X126.381 Y112.089 E25.46951
G1 X96.947 Y112.088 E26.44849
G1 X96.946 Y118.526 E26.66261
G1 X96.886 Y119.443 E26.69318
G1 X96.838 Y119.806 E26.70536
G1 X96.700 Y120.541 E26.73023
G1 X96.365 Y121.568 E26.76616
G1 X96.215 Y121.930 E26.77919
G1 X95.892 Y122.604 E26.80405
G1 X95.300 Y123.513 E26.84013
G1 X95.062 Y123.823 E26.85313
G1 X94.576 Y124.391 E26.87799
G1 X93.775 Y125.110 E26.91379
G1 X93.464 Y125.349 E26.92684
G1 X92.848 Y125.773 E26.95171
G1 X91.863 Y126.272 E26.98844
G1 X91.501 Y126.421 E27.00146
G1 X90.795 Y126.668 E27.02633
G1 X89.767 Y126.886 E27.06129
G1 X89.379 Y126.938 E27.07431
G1 X88.448 Y127.000 E27.10534
G1 X61.423 Y126.997 E28.00420
G1 X60.488 Y126.934 E28.03536
G1 X60.125 Y126.885 E28.04755
G1 X59.390 Y126.746 E28.07243
G1 X58.397 Y126.421 E28.10718
G1 X58.035 Y126.272 E28.12020
G1 X57.359 Y125.951 E28.14509
